;FLAVOR:Marlin
;TIME:4902
;Filament used: 3.04679m
;Layer height: 0.2
;MINX:154.332
;MINY:169.335
;MINZ:0.2
;MAXX:195.668
;MAXY:180.653
;MAXZ:62.2
;Generated with Cura_SteamEngine 5.0.0
M140 S60
M105
M190 S60
M104 S190
M105
M109 S190
M82 ;absolute extrusion mode
M201 X500.00 Y500.00 Z100.00 E5000.00 ;Setup machine max acceleration
M203 X500.00 Y500.00 Z10.00 E50.00 ;Setup machine max feedrate
M204 P500.00 R1000.00 T500.00 ;Setup Print/Retract/Travel acceleration
M205 X8.00 Y8.00 Z0.40 E5.00 ;Setup Jerk
M220 S100 ;Reset Feedrate
M221 S100 ;Reset Flowrate

G28 ;Home
M420 S1 Z2 ;Enable ABL using saved Mesh and Fade Height

G92 E0 ;Reset Extruder
G1 Z2.0 F3000 ;Move Z Axis up
G1 X10.1 Y20 Z0.28 F5000.0 ;Move to start position
G1 X10.1 Y200.0 Z0.28 F1500.0 E15 ;Draw the first line
G1 X10.4 Y200.0 Z0.28 F5000.0 ;Move to side a little
G1 X10.4 Y20 Z0.28 F1500.0 E30 ;Draw the second line
G92 E0 ;Reset Extruder
G1 Z2.0 F3000 ;Move Z Axis up

G92 E0
G92 E0
G1 F2700 E-5
;LAYER_COUNT:311
;LAYER:0
M107
;MESH:180-220_PLA_Temp_calibration.stl
G0 F6000 X155.2 Y179.8 Z0.2
;TYPE:WALL-OUTER
G1 F2700 E0
G1 F1200 X194.8 Y179.8 E1.3171
G1 X194.8 Y170.2 E1.6364
G1 X155.2 Y170.2 E2.9535
G1 X155.2 Y179.8 E3.2728
G0 F6000 X155.6 Y179.4
;TYPE:WALL-INNER
G1 F1200 X194.4 Y179.4 E4.56329
G1 X194.4 Y170.6 E4.85598
G1 X155.6 Y170.6 E6.14647
G1 X155.6 Y179.4 E6.43916
G0 F6000 X156 Y179
G1 F1200 X194 Y179 E7.70305
G1 X194 Y171 E7.96913
G1 X156 Y171 E9.23301
G1 X156 Y179 E9.49909
G0 F6000 X156.36 Y178.64
;TYPE:SKIN
G1 F1200 X193.64 Y178.64 E10.73903
G1 X193.64 Y171.36 E10.98117
G1 X156.36 Y171.36 E12.2211
G1 X156.36 Y175 E12.34217
G1 X156.36 Y178.64 E12.46324
G0 F6000 X156.943 Y178.439
G1 F1200 X156.559 Y178.055 E12.4813
G0 F6000 X156.559 Y177.49
G1 F1200 X157.508 Y178.439 E12.52594
G0 F6000 X158.074 Y178.439
G1 F1200 X156.559 Y176.924 E12.5972
G0 F6000 X156.559 Y176.358
G1 F1200 X158.64 Y178.439 E12.69508
G0 F6000 X159.205 Y178.439
G1 F1200 X156.559 Y175.793 E12.81954
G0 F6000 X156.559 Y175.227
G1 F1200 X159.771 Y178.439 E12.97063
G0 F6000 X160.337 Y178.439
G1 F1200 X156.559 Y174.661 E13.14833
G0 F6000 X156.559 Y174.096
G1 F1200 X160.902 Y178.439 E13.35261
G0 F6000 X161.468 Y178.439
G1 F1200 X156.559 Y173.53 E13.58352
G0 F6000 X156.559 Y172.964
G1 F1200 X162.034 Y178.439 E13.84104
G0 F6000 X162.599 Y178.439
G1 F1200 X156.559 Y172.398 E14.12517
G0 F6000 X156.559 Y171.833
G1 F1200 X163.165 Y178.439 E14.4359
G0 F6000 X163.731 Y178.439
G1 F1200 X156.851 Y171.559 E14.75951
G0 F6000 X157.417 Y171.559
G1 F1200 X164.296 Y178.439 E15.0831
G0 F6000 X164.862 Y178.439
G1 F1200 X157.983 Y171.559 E15.40669
G0 F6000 X158.548 Y171.559
G1 F1200 X165.428 Y178.439 E15.73031
G0 F6000 X165.994 Y178.439
G1 F1200 X159.114 Y171.559 E16.05392
G0 F6000 X159.68 Y171.559
G1 F1200 X166.559 Y178.439 E16.37751
G0 F6000 X167.125 Y178.439
G1 F1200 X160.245 Y171.559 E16.70112
G0 F6000 X160.811 Y171.559
G1 F1200 X167.691 Y178.439 E17.02474
G0 F6000 X168.256 Y178.439
G1 F1200 X161.377 Y171.559 E17.34833
G0 F6000 X161.943 Y171.559
G1 F1200 X168.822 Y178.439 E17.67192
G0 F6000 X169.388 Y178.439
G1 F1200 X162.508 Y171.559 E17.99553
G0 F6000 X163.074 Y171.559
G1 F1200 X169.953 Y178.439 E18.31912
G0 F6000 X170.519 Y178.439
G1 F1200 X163.64 Y171.559 E18.64272
G0 F6000 X164.205 Y171.559
G1 F1200 X171.085 Y178.439 E18.96633
G0 F6000 X171.65 Y178.439
G1 F1200 X164.771 Y171.559 E19.28992
G0 F6000 X165.337 Y171.559
G1 F1200 X172.216 Y178.439 E19.61351
G0 F6000 X172.782 Y178.439
G1 F1200 X165.902 Y171.559 E19.93712
G0 F6000 X166.468 Y171.559
G1 F1200 X173.347 Y178.439 E20.26072
G0 F6000 X173.913 Y178.439
G1 F1200 X167.034 Y171.559 E20.58431
G0 F6000 X167.599 Y171.559
G1 F1200 X174.479 Y178.439 E20.90792
G0 F6000 X175.044 Y178.439
G1 F1200 X168.165 Y171.559 E21.23151
G0 F6000 X168.731 Y171.559
G1 F1200 X175.61 Y178.439 E21.5551
G0 F6000 X176.176 Y178.439
G1 F1200 X169.296 Y171.559 E21.87871
G0 F6000 X169.862 Y171.559
G1 F1200 X176.742 Y178.439 E22.20233
G0 F6000 X177.307 Y178.439
G1 F1200 X170.428 Y171.559 E22.52592
G0 F6000 X170.993 Y171.559
G1 F1200 X177.873 Y178.439 E22.84953
G0 F6000 X178.439 Y178.439
G1 F1200 X171.559 Y171.559 E23.17315
G0 F6000 X172.125 Y171.559
G1 F1200 X179.004 Y178.439 E23.49674
G0 F6000 X179.57 Y178.439
G1 F1200 X172.691 Y171.559 E23.82033
G0 F6000 X173.256 Y171.559
G1 F1200 X180.136 Y178.439 E24.14394
G0 F6000 X180.701 Y178.439
G1 F1200 X173.822 Y171.559 E24.46753
G0 F6000 X174.388 Y171.559
G1 F1200 X181.267 Y178.439 E24.79112
G0 F6000 X181.833 Y178.439
G1 F1200 X174.953 Y171.559 E25.11474
G0 F6000 X175.519 Y171.559
G1 F1200 X182.398 Y178.439 E25.43833
G0 F6000 X182.964 Y178.439
G1 F1200 X176.085 Y171.559 E25.76192
G0 F6000 X176.65 Y171.559
G1 F1200 X183.53 Y178.439 E26.08553
G0 F6000 X184.095 Y178.439
G1 F1200 X177.216 Y171.559 E26.40912
G0 F6000 X177.782 Y171.559
G1 F1200 X184.661 Y178.439 E26.73271
G0 F6000 X185.227 Y178.439
G1 F1200 X178.347 Y171.559 E27.05633
G0 F6000 X178.913 Y171.559
G1 F1200 X185.793 Y178.439 E27.37994
G0 F6000 X186.358 Y178.439
G1 F1200 X179.479 Y171.559 E27.70353
G0 F6000 X180.044 Y171.559
G1 F1200 X186.924 Y178.439 E28.02715
G0 F6000 X187.49 Y178.439
G1 F1200 X180.61 Y171.559 E28.35076
G0 F6000 X181.176 Y171.559
G1 F1200 X188.055 Y178.439 E28.67435
G0 F6000 X188.621 Y178.439
G1 F1200 X181.741 Y171.559 E28.99797
G0 F6000 X182.307 Y171.559
G1 F1200 X189.187 Y178.439 E29.32158
G0 F6000 X189.752 Y178.439
G1 F1200 X182.873 Y171.559 E29.64517
G0 F6000 X183.439 Y171.559
G1 F1200 X190.318 Y178.439 E29.96876
G0 F6000 X190.884 Y178.439
G1 F1200 X184.004 Y171.559 E30.29238
G0 F6000 X184.57 Y171.559
G1 F1200 X191.449 Y178.439 E30.61597
G0 F6000 X192.015 Y178.439
G1 F1200 X185.136 Y171.559 E30.93956
G0 F6000 X185.701 Y171.559
G1 F1200 X192.581 Y178.439 E31.26317
G0 F6000 X193.146 Y178.439
G1 F1200 X186.267 Y171.559 E31.58676
G0 F6000 X186.833 Y171.559
G1 F1200 X193.438 Y178.165 E31.89746
G0 F6000 X193.438 Y177.599
G1 F1200 X187.398 Y171.559 E32.18157
G0 F6000 X187.964 Y171.559
G1 F1200 X193.438 Y177.034 E32.43907
G0 F6000 X193.438 Y176.468
G1 F1200 X188.53 Y171.559 E32.66995
G0 F6000 X189.095 Y171.559
G1 F1200 X193.438 Y175.902 E32.87423
G0 F6000 X193.438 Y175.337
G1 F1200 X189.661 Y171.559 E33.05192
G0 F6000 X190.227 Y171.559
G1 F1200 X193.438 Y174.771 E33.20297
G0 F6000 X193.438 Y174.205
G1 F1200 X190.792 Y171.559 E33.32743
G0 F6000 X191.358 Y171.559
G1 F1200 X193.438 Y173.639 E33.42527
G0 F6000 X193.438 Y173.074
G1 F1200 X191.924 Y171.559 E33.49651
G0 F6000 X192.49 Y171.559
G1 F1200 X193.438 Y172.508 E33.54112
G0 F6000 X193.438 Y171.942
G1 F1200 X193.055 Y171.559 E33.55914
G0 F6000 X193.055 Y171.01
G1 F2700 E28.55914
;MESH:NONMESH
G0 F300 X193.055 Y171.01 Z0.4
G0 F6000 X193.828 Y171.172
G0 X193.828 Y178.828
G0 X155.68 Y179.32
G1 F2700 E33.55914
G0 F6000 X155.2 Y179.8
;TIME_ELAPSED:62.515019
;LAYER:1
M106 S59.5
;TYPE:WALL-OUTER
;MESH:180-220_PLA_Temp_calibration.stl
G1 F1800 X194.8 Y179.8 E34.87624
G1 X194.8 Y170.2 E35.19554
G1 X155.2 Y170.2 E36.51264
G1 X155.2 Y179.8 E36.83194
G0 F6000 X155.6 Y179.4
;TYPE:WALL-INNER
G1 F1800 X194.4 Y179.4 E38.12243
G1 X194.4 Y170.6 E38.41512
G1 X155.6 Y170.6 E39.70561
G1 X155.6 Y179.4 E39.9983
G0 F6000 X156 Y179
G1 F1800 X194 Y179 E41.26219
G1 X194 Y171 E41.52827
G1 X156 Y171 E42.79215
G1 X156 Y179 E43.05823
G0 F6000 X156.36 Y178.64
;TYPE:SKIN
G1 F1800 X193.64 Y178.64 E44.29817
G1 X193.64 Y171.36 E44.5403
G1 X156.36 Y171.36 E45.78024
G1 X156.36 Y178.64 E46.02238
G0 F6000 X156.1 Y178.64
G0 X156.1 Y172.103
G0 X156.559 Y172.103
G1 F1800 X157.104 Y171.558 E46.04801
G0 F6000 X157.669 Y171.558
G1 F1800 X156.559 Y172.669 E46.10025
G0 F6000 X156.559 Y173.234
G1 F1800 X158.235 Y171.558 E46.17908
G0 F6000 X158.801 Y171.558
G1 F1800 X156.559 Y173.8 E46.28454
G0 F6000 X156.559 Y174.366
G1 F1800 X159.367 Y171.558 E46.41662
G0 F6000 X159.932 Y171.558
G1 F1800 X156.559 Y174.931 E46.57527
G0 F6000 X156.559 Y175.497
G1 F1800 X160.498 Y171.558 E46.76055
G0 F6000 X161.064 Y171.558
G1 F1800 X156.559 Y176.063 E46.97245
G0 F6000 X156.559 Y176.628
G1 F1800 X161.629 Y171.558 E47.21093
G0 F6000 X162.195 Y171.558
G1 F1800 X156.559 Y177.194 E47.47603
G0 F6000 X156.559 Y177.76
G1 F1800 X162.761 Y171.558 E47.76775
G0 F6000 X163.326 Y171.558
G1 F1800 X156.559 Y178.325 E48.08605
G0 F6000 X157.011 Y178.439
G1 F1800 X163.892 Y171.558 E48.40971
G0 F6000 X164.458 Y171.558
G1 F1800 X157.577 Y178.439 E48.73337
G0 F6000 X158.143 Y178.439
G1 F1800 X165.023 Y171.558 E49.05701
G0 F6000 X165.589 Y171.558
G1 F1800 X158.708 Y178.439 E49.38067
G0 F6000 X159.274 Y178.439
G1 F1800 X166.155 Y171.558 E49.70433
G0 F6000 X166.72 Y171.558
G1 F1800 X159.84 Y178.439 E50.02797
G0 F6000 X160.405 Y178.439
G1 F1800 X167.286 Y171.558 E50.35163
G0 F6000 X167.852 Y171.558
G1 F1800 X160.971 Y178.439 E50.67529
G0 F6000 X161.537 Y178.439
G1 F1800 X168.417 Y171.558 E50.99893
G0 F6000 X168.983 Y171.558
G1 F1800 X162.102 Y178.439 E51.32259
G0 F6000 X162.668 Y178.439
G1 F1800 X169.549 Y171.558 E51.64625
G0 F6000 X170.115 Y171.558
G1 F1800 X163.234 Y178.439 E51.96991
G0 F6000 X163.799 Y178.439
G1 F1800 X170.68 Y171.558 E52.29358
G0 F6000 X171.246 Y171.558
G1 F1800 X164.365 Y178.439 E52.61724
G0 F6000 X164.931 Y178.439
G1 F1800 X171.812 Y171.558 E52.9409
G0 F6000 X172.377 Y171.558
G1 F1800 X165.496 Y178.439 E53.26456
G0 F6000 X166.062 Y178.439
G1 F1800 X172.943 Y171.558 E53.58822
G0 F6000 X173.509 Y171.558
G1 F1800 X166.628 Y178.439 E53.91188
G0 F6000 X167.193 Y178.439
G1 F1800 X174.074 Y171.558 E54.23554
G0 F6000 X174.64 Y171.558
G1 F1800 X167.759 Y178.439 E54.5592
G0 F6000 X168.325 Y178.439
G1 F1800 X175.206 Y171.558 E54.88286
G0 F6000 X175.771 Y171.558
G1 F1800 X168.891 Y178.439 E55.2065
G0 F6000 X169.456 Y178.439
G1 F1800 X176.337 Y171.558 E55.53016
G0 F6000 X176.903 Y171.558
G1 F1800 X170.022 Y178.439 E55.85382
G0 F6000 X170.588 Y178.439
G1 F1800 X177.468 Y171.558 E56.17746
G0 F6000 X178.034 Y171.558
G1 F1800 X171.153 Y178.439 E56.50112
G0 F6000 X171.719 Y178.439
G1 F1800 X178.6 Y171.558 E56.82478
G0 F6000 X179.166 Y171.558
G1 F1800 X172.285 Y178.439 E57.14845
G0 F6000 X172.85 Y178.439
G1 F1800 X179.731 Y171.558 E57.47211
G0 F6000 X180.297 Y171.558
G1 F1800 X173.416 Y178.439 E57.79577
G0 F6000 X173.982 Y178.439
G1 F1800 X180.863 Y171.558 E58.11943
G0 F6000 X181.428 Y171.558
G1 F1800 X174.547 Y178.439 E58.44309
G0 F6000 X175.113 Y178.439
G1 F1800 X181.994 Y171.558 E58.76675
G0 F6000 X182.56 Y171.558
G1 F1800 X175.679 Y178.439 E59.09041
G0 F6000 X176.244 Y178.439
G1 F1800 X183.125 Y171.558 E59.41407
G0 F6000 X183.691 Y171.558
G1 F1800 X176.81 Y178.439 E59.73773
G0 F6000 X177.376 Y178.439
G1 F1800 X184.257 Y171.558 E60.0614
G0 F6000 X184.822 Y171.558
G1 F1800 X177.942 Y178.439 E60.38503
G0 F6000 X178.507 Y178.439
G1 F1800 X185.388 Y171.558 E60.70869
G0 F6000 X185.954 Y171.558
G1 F1800 X179.073 Y178.439 E61.03236
G0 F6000 X179.639 Y178.439
G1 F1800 X186.519 Y171.558 E61.35599
G0 F6000 X187.085 Y171.558
G1 F1800 X180.204 Y178.439 E61.67965
G0 F6000 X180.77 Y178.439
G1 F1800 X187.651 Y171.558 E62.00332
G0 F6000 X188.216 Y171.558
G1 F1800 X181.336 Y178.439 E62.32695
G0 F6000 X181.901 Y178.439
G1 F1800 X188.782 Y171.558 E62.65061
G0 F6000 X189.348 Y171.558
G1 F1800 X182.467 Y178.439 E62.97428
G0 F6000 X183.033 Y178.439
G1 F1800 X189.914 Y171.558 E63.29794
G0 F6000 X190.479 Y171.558
G1 F1800 X183.598 Y178.439 E63.6216
G0 F6000 X184.164 Y178.439
G1 F1800 X191.045 Y171.558 E63.94526
G0 F6000 X191.611 Y171.558
G1 F1800 X184.73 Y178.439 E64.26892
G0 F6000 X185.295 Y178.439
G1 F1800 X192.176 Y171.558 E64.59258
G0 F6000 X192.742 Y171.558
G1 F1800 X185.861 Y178.439 E64.91624
G0 F6000 X186.427 Y178.439
G1 F1800 X193.308 Y171.558 E65.2399
G0 F6000 X193.438 Y171.993
G1 F1800 X186.992 Y178.439 E65.5431
G0 F6000 X187.558 Y178.439
G1 F1800 X193.438 Y172.559 E65.81968
G0 F6000 X193.438 Y173.125
G1 F1800 X188.124 Y178.439 E66.06963
G0 F6000 X188.69 Y178.439
G1 F1800 X193.438 Y173.69 E66.29299
G0 F6000 X193.438 Y174.256
G1 F1800 X189.255 Y178.439 E66.48975
G0 F6000 X189.821 Y178.439
G1 F1800 X193.438 Y174.822 E66.65988
G0 F6000 X193.438 Y175.387
G1 F1800 X190.387 Y178.439 E66.80341
G0 F6000 X190.952 Y178.439
G1 F1800 X193.438 Y175.953 E66.92034
G0 F6000 X193.438 Y176.519
G1 F1800 X191.518 Y178.439 E67.01066
G0 F6000 X192.084 Y178.439
G1 F1800 X193.438 Y177.084 E67.07437
G0 F6000 X193.438 Y177.65
G1 F1800 X192.649 Y178.439 E67.11148
G0 F6000 X193.215 Y178.439
G1 F1800 X193.438 Y178.216 E67.12197
G0 F6000 X193.99 Y178.216
G1 F2700 E62.12197
;MESH:NONMESH
G0 F300 X193.99 Y178.216 Z0.6
G0 F6000 X193.828 Y178.828
G0 X155.68 Y179.32
G1 F2700 E67.12197
G0 F6000 X155.2 Y179.8
;TIME_ELAPSED:104.724469
;LAYER:2
M106 S119
;TYPE:WALL-OUTER
;MESH:180-220_PLA_Temp_calibration.stl
G1 F2400 X194.8 Y179.8 E68.43907
G1 X194.8 Y170.2 E68.75837
G1 X155.2 Y170.2 E70.07547
G1 X155.2 Y179.8 E70.39477
G0 F6000 X155.6 Y179.4
;TYPE:WALL-INNER
G1 F2400 X194.4 Y179.4 E71.68526
G1 X194.4 Y170.6 E71.97795
G1 X155.6 Y170.6 E73.26844
G1 X155.6 Y179.4 E73.56113
G0 F6000 X156 Y179
G1 F2400 X194 Y179 E74.82502
G1 X194 Y171 E75.0911
G1 X156 Y171 E76.35498
G1 X156 Y179 E76.62106
G0 F6000 X156.36 Y178.64
;TYPE:SKIN
G1 F2400 X193.64 Y178.64 E77.861
G1 X193.64 Y171.36 E78.10313
G1 X156.36 Y171.36 E79.34307
G1 X156.36 Y178.64 E79.58521
G0 F6000 X156.943 Y178.439
G1 F2400 X156.559 Y178.055 E79.60327
G0 F6000 X156.559 Y177.49
G1 F2400 X157.508 Y178.439 E79.64791
G0 F6000 X158.074 Y178.439
G1 F2400 X156.559 Y176.924 E79.71917
G0 F6000 X156.559 Y176.358
G1 F2400 X158.64 Y178.439 E79.81705
G0 F6000 X159.205 Y178.439
G1 F2400 X156.559 Y175.793 E79.94151
G0 F6000 X156.559 Y175.227
G1 F2400 X159.771 Y178.439 E80.09259
G0 F6000 X160.337 Y178.439
G1 F2400 X156.559 Y174.661 E80.2703
G0 F6000 X156.559 Y174.096
G1 F2400 X160.902 Y178.439 E80.47458
G0 F6000 X161.468 Y178.439
G1 F2400 X156.559 Y173.53 E80.70549
G0 F6000 X156.559 Y172.964
G1 F2400 X162.034 Y178.439 E80.96301
G0 F6000 X162.599 Y178.439
G1 F2400 X156.559 Y172.398 E81.24714
G0 F6000 X156.559 Y171.833
G1 F2400 X163.165 Y178.439 E81.55786
G0 F6000 X163.731 Y178.439
G1 F2400 X156.851 Y171.559 E81.88148
G0 F6000 X157.417 Y171.559
G1 F2400 X164.296 Y178.439 E82.20507
G0 F6000 X164.862 Y178.439
G1 F2400 X157.983 Y171.559 E82.52866
G0 F6000 X158.548 Y171.559
G1 F2400 X165.428 Y178.439 E82.85227
G0 F6000 X165.994 Y178.439
G1 F2400 X159.114 Y171.559 E83.17589
G0 F6000 X159.68 Y171.559
G1 F2400 X166.559 Y178.439 E83.49948
G0 F6000 X167.125 Y178.439
G1 F2400 X160.245 Y171.559 E83.82309
G0 F6000 X160.811 Y171.559
G1 F2400 X167.691 Y178.439 E84.14671
G0 F6000 X168.256 Y178.439
G1 F2400 X161.377 Y171.559 E84.4703
G0 F6000 X161.943 Y171.559
G1 F2400 X168.822 Y178.439 E84.79389
G0 F6000 X169.388 Y178.439
G1 F2400 X162.508 Y171.559 E85.1175
G0 F6000 X163.074 Y171.559
G1 F2400 X169.953 Y178.439 E85.44109
G0 F6000 X170.519 Y178.439
G1 F2400 X163.64 Y171.559 E85.76468
G0 F6000 X164.205 Y171.559
G1 F2400 X171.085 Y178.439 E86.0883
G0 F6000 X171.65 Y178.439
G1 F2400 X164.771 Y171.559 E86.41189
G0 F6000 X165.337 Y171.559
G1 F2400 X172.216 Y178.439 E86.73548
G0 F6000 X172.782 Y178.439
G1 F2400 X165.902 Y171.559 E87.05909
G0 F6000 X166.468 Y171.559
G1 F2400 X173.347 Y178.439 E87.38268
G0 F6000 X173.913 Y178.439
G1 F2400 X167.034 Y171.559 E87.70627
G0 F6000 X167.599 Y171.559
G1 F2400 X174.479 Y178.439 E88.02989
G0 F6000 X175.044 Y178.439
G1 F2400 X168.165 Y171.559 E88.35348
G0 F6000 X168.731 Y171.559
G1 F2400 X175.61 Y178.439 E88.67707
G0 F6000 X176.176 Y178.439
G1 F2400 X169.296 Y171.559 E89.00068
G0 F6000 X169.862 Y171.559
G1 F2400 X176.742 Y178.439 E89.3243
G0 F6000 X177.307 Y178.439
G1 F2400 X170.428 Y171.559 E89.64789
G0 F6000 X170.993 Y171.559
G1 F2400 X177.873 Y178.439 E89.9715
G0 F6000 X178.439 Y178.439
G1 F2400 X171.559 Y171.559 E90.29512
G0 F6000 X172.125 Y171.559
G1 F2400 X179.004 Y178.439 E90.61871
G0 F6000 X179.57 Y178.439
G1 F2400 X172.691 Y171.559 E90.9423
G0 F6000 X173.256 Y171.559
G1 F2400 X180.136 Y178.439 E91.26591
G0 F6000 X180.701 Y178.439
G1 F2400 X173.822 Y171.559 E91.5895
G0 F6000 X174.388 Y171.559
G1 F2400 X181.267 Y178.439 E91.91309
G0 F6000 X181.833 Y178.439
