;FLAVOR:Marlin
;TIME:354
;Filament used: 0.797612m
;Layer height: 0.32
;MINX:62.9
;MINY:62.9
;MINZ:0.32
;MAXX:287.1
;MAXY:287.1
;MAXZ:1.04
;Generated with Cura_SteamEngine 5.0.0
M140 S60
M105
M190 S60
M104 S190
M105
M109 S190
M82 ;absolute extrusion mode
M201 X500.00 Y500.00 Z100.00 E5000.00 ;Setup machine max acceleration
M203 X500.00 Y500.00 Z10.00 E50.00 ;Setup machine max feedrate
M204 P500.00 R1000.00 T500.00 ;Setup Print/Retract/Travel acceleration
M205 X8.00 Y8.00 Z0.40 E5.00 ;Setup Jerk
M220 S100 ;Reset Feedrate
M221 S100 ;Reset Flowrate

G28 ;Home
M420 S1 Z2 ;Enable ABL using saved Mesh and Fade Height

G92 E0 ;Reset Extruder
G1 Z2.0 F3000 ;Move Z Axis up
G1 X10.1 Y20 Z0.28 F5000.0 ;Move to start position
G1 X10.1 Y200.0 Z0.28 F1500.0 E15 ;Draw the first line
G1 X10.4 Y200.0 Z0.28 F5000.0 ;Move to side a little
G1 X10.4 Y20 Z0.28 F1500.0 E30 ;Draw the second line
G92 E0 ;Reset Extruder
G1 Z2.0 F3000 ;Move Z Axis up

G92 E0
G92 E0
G1 F2700 E-5
;LAYER_COUNT:2
;LAYER:0
M107
G1 F300 Z0.72
;MESH:25x25x.5.stl(3)
G0 F6000 X85.634 Y87.1 Z0.72
;TYPE:WALL-OUTER
G1 F300 Z0.32
G1 F2700 E0
G1 F1200 X85.634 Y62.9 E2.96201
G1 X64.366 Y62.9 E5.56516
G1 X64.366 Y87.1 E8.52717
G1 X85.634 Y87.1 E11.13032
G0 F6000 X84.834 Y86.3
;TYPE:WALL-INNER
G1 F1200 X84.834 Y63.7 E13.8965
G1 X65.166 Y63.7 E16.30381
G1 X65.166 Y86.3 E19.06999
G1 X84.834 Y86.3 E21.4773
G0 F6000 X84.034 Y85.5
G1 F1200 X84.034 Y64.5 E24.04764
G1 X65.966 Y64.5 E26.25912
G1 X65.966 Y85.5 E28.82946
G1 X84.034 Y85.5 E31.04093
G0 F6000 X83.314 Y84.78
;TYPE:SKIN
G1 F1200 X83.314 Y65.22 E33.43502
G1 X66.686 Y65.22 E35.47025
G1 X66.686 Y73.534 E36.48786
G1 X66.686 Y84.78 E37.86434
G1 X83.314 Y84.78 E39.89956
G1 F2700 E34.89956
G1 F300 Z0.72
G0 F6000 X67.408 Y84.379 Z0.72
G1 F300 Z0.32
G1 F2700 E39.89956
G1 F1200 X67.085 Y84.055 E39.95556
G0 F6000 X67.085 Y82.924
G1 F1200 X68.539 Y84.379 E40.20733
G0 F6000 X69.671 Y84.379
G1 F1200 X67.085 Y81.793 E40.65495
G0 F6000 X67.085 Y80.661
G1 F1200 X70.802 Y84.379 E41.29844
G0 F6000 X71.933 Y84.379
G1 F1200 X67.085 Y79.53 E42.13769
G0 F6000 X67.085 Y78.399
G1 F1200 X73.065 Y84.379 E43.1728
G0 F6000 X74.196 Y84.379
G1 F1200 X67.085 Y77.267 E44.40378
G0 F6000 X67.085 Y76.136
G1 F1200 X75.328 Y84.379 E45.83061
G0 F6000 X76.459 Y84.379
G1 F1200 X67.085 Y75.004 E47.45329
G0 F6000 X67.085 Y73.873
G1 F1200 X77.59 Y84.379 E49.27175
G0 F6000 X78.722 Y84.379
G1 F1200 X67.085 Y72.742 E51.28607
G0 F6000 X67.085 Y71.61
G1 F1200 X79.853 Y84.379 E53.49624
G0 F6000 X80.984 Y84.379
G1 F1200 X67.085 Y70.479 E55.90219
G0 F6000 X67.085 Y69.348
G1 F1200 X82.116 Y84.379 E58.504
G0 F6000 X82.913 Y84.045
G1 F1200 X67.085 Y68.216 E61.24385
G0 F6000 X67.085 Y67.085
G1 F1200 X82.913 Y82.913 E63.98361
G0 F6000 X82.913 Y81.782
G1 F1200 X67.085 Y65.953 E66.72346
G0 F6000 X67.882 Y65.62
G1 F1200 X82.913 Y80.651 E69.32526
G0 F6000 X82.913 Y79.519
G1 F1200 X69.014 Y65.62 E71.73112
G0 F6000 X70.145 Y65.62
G1 F1200 X82.913 Y78.388 E73.94121
G0 F6000 X82.913 Y77.257
G1 F1200 X71.277 Y65.62 E75.95544
G0 F6000 X72.408 Y65.62
G1 F1200 X82.913 Y76.125 E77.77381
G0 F6000 X82.913 Y74.994
G1 F1200 X73.539 Y65.62 E79.39641
G0 F6000 X74.671 Y65.62
G1 F1200 X82.913 Y73.862 E80.82307
G0 F6000 X82.913 Y72.731
G1 F1200 X75.802 Y65.62 E82.05396
G0 F6000 X76.933 Y65.62
G1 F1200 X82.913 Y71.6 E83.08907
G0 F6000 X82.913 Y70.468
G1 F1200 X78.065 Y65.62 E83.92824
G0 F6000 X79.196 Y65.62
G1 F1200 X82.913 Y69.337 E84.57164
G0 F6000 X82.913 Y68.206
G1 F1200 X80.328 Y65.62 E85.01918
G0 F6000 X81.459 Y65.62
G1 F1200 X82.913 Y67.074 E85.27086
G0 F6000 X82.913 Y65.943
G1 F1200 X82.59 Y65.62 E85.32677
G1 F2700 E80.32677
G1 F300 Z0.72
;MESH:25x25x.5.stl
G0 F6000 X162.9 Y185.634 Z0.72
;TYPE:WALL-OUTER
G1 F300 Z0.32
G1 F2700 E85.32677
G1 F1200 X187.1 Y185.634 E88.28878
G1 X187.1 Y164.366 E90.89193
G1 X162.9 Y164.366 E93.85394
G1 X162.9 Y185.634 E96.45709
G0 F6000 X163.7 Y184.834
;TYPE:WALL-INNER
G1 F1200 X186.3 Y184.834 E99.22327
G1 X186.3 Y165.166 E101.63058
G1 X163.7 Y165.166 E104.39676
G1 X163.7 Y184.834 E106.80407
G0 F6000 X164.5 Y184.034
G1 F1200 X185.5 Y184.034 E109.37441
G1 X185.5 Y165.966 E111.58588
G1 X164.5 Y165.966 E114.15623
G1 X164.5 Y184.034 E116.3677
G0 F6000 X165.22 Y183.314
;TYPE:SKIN
G1 F1200 X184.78 Y183.314 E118.76179
G1 X184.78 Y166.686 E120.79701
G1 X165.22 Y166.686 E123.1911
G1 X165.22 Y183.314 E125.22633
G0 F6000 X165.619 Y182.59
G1 F1200 X165.942 Y182.912 E125.28215
G0 F6000 X167.073 Y182.912
G1 F1200 X165.619 Y181.459 E125.53375
G0 F6000 X165.619 Y180.327
G1 F1200 X168.205 Y182.912 E125.98128
G0 F6000 X169.336 Y182.912
G1 F1200 X165.619 Y179.196 E126.6246
G0 F6000 X165.619 Y178.065
G1 F1200 X170.467 Y182.912 E127.46368
G0 F6000 X171.599 Y182.912
G1 F1200 X165.619 Y176.933 E128.49871
G0 F6000 X165.619 Y175.802
G1 F1200 X172.73 Y182.912 E129.7295
G0 F6000 X173.862 Y182.912
G1 F1200 X165.619 Y174.67 E131.15625
G0 F6000 X165.619 Y173.539
G1 F1200 X174.993 Y182.912 E132.77876
G0 F6000 X176.125 Y182.913
G1 F1200 X165.619 Y172.408 E134.59722
G0 F6000 X165.619 Y171.276
G1 F1200 X177.256 Y182.913 E136.61154
G0 F6000 X178.388 Y182.913
G1 F1200 X165.619 Y170.145 E138.82171
G0 F6000 X165.619 Y169.014
G1 F1200 X179.519 Y182.913 E141.22766
G0 F6000 X180.65 Y182.913
G1 F1200 X165.619 Y167.882 E143.82946
G0 F6000 X165.954 Y167.085
G1 F1200 X181.782 Y182.913 E146.56923
G0 F6000 X182.913 Y182.913
G1 F1200 X167.085 Y167.085 E149.30899
G0 F6000 X168.217 Y167.085
G1 F1200 X184.045 Y182.913 E152.04875
G0 F6000 X184.379 Y182.116
G1 F1200 X169.348 Y167.085 E154.65056
G0 F6000 X170.479 Y167.085
G1 F1200 X184.379 Y180.985 E157.05659
G0 F6000 X184.379 Y179.854
G1 F1200 X171.611 Y167.085 E159.26676
G0 F6000 X172.742 Y167.085
G1 F1200 X184.379 Y178.722 E161.28108
G0 F6000 X184.379 Y177.591
G1 F1200 X173.874 Y167.085 E163.09954
G0 F6000 X175.005 Y167.085
G1 F1200 X184.379 Y176.459 E164.72214
G0 F6000 X184.379 Y175.328
G1 F1200 X176.136 Y167.085 E166.14897
G0 F6000 X177.268 Y167.085
G1 F1200 X184.379 Y174.197 E167.37994
G0 F6000 X184.379 Y173.065
G1 F1200 X178.399 Y167.085 E168.41506
G0 F6000 X179.53 Y167.085
G1 F1200 X184.379 Y171.934 E169.2544
G0 F6000 X184.379 Y170.803
G1 F1200 X180.662 Y167.085 E169.89788
G0 F6000 X181.793 Y167.085
G1 F1200 X184.379 Y169.671 E170.34551
G0 F6000 X184.379 Y168.54
G1 F1200 X182.924 Y167.085 E170.59736
G0 F6000 X184.056 Y167.085
G1 F1200 X184.379 Y167.408 E170.65327
G1 F2700 E165.65327
G1 F300 Z0.72
;MESH:25x25x.5.stl(1)
G0 F6000 X87.1 Y285.634 Z0.72
;TYPE:WALL-OUTER
G1 F300 Z0.32
G1 F2700 E170.65327
G1 F1200 X87.1 Y264.366 E173.25642
G1 X62.9 Y264.366 E176.21843
G1 X62.9 Y285.634 E178.82158
G1 X87.1 Y285.634 E181.78359
G0 F6000 X86.3 Y284.834
;TYPE:WALL-INNER
G1 F1200 X86.3 Y265.166 E184.1909
G1 X63.7 Y265.166 E186.95708
G1 X63.7 Y284.834 E189.36439
G1 X86.3 Y284.834 E192.13057
G0 F6000 X85.5 Y284.034
G1 F1200 X85.5 Y265.966 E194.34205
G1 X64.5 Y265.966 E196.91239
G1 X64.5 Y284.034 E199.12386
G1 X85.5 Y284.034 E201.69421
G0 F6000 X84.78 Y283.314
;TYPE:SKIN
G1 F1200 X84.78 Y266.686 E203.72943
G1 X65.22 Y266.686 E206.12352
G1 X65.22 Y283.314 E208.15874
G1 X84.78 Y283.314 E210.55283
G1 F2700 E205.55283
G1 F300 Z0.72
G0 F6000 X84.38 Y267.662 Z0.72
G1 F300 Z0.32
G1 F2700 E210.55283
G1 F1200 X83.802 Y267.084 E210.65288
G0 F6000 X82.671 Y267.084
G1 F1200 X84.38 Y268.793 E210.9487
G0 F6000 X84.38 Y269.925
G1 F1200 X81.54 Y267.084 E211.44038
G0 F6000 X80.408 Y267.084
G1 F1200 X84.38 Y271.056 E212.12792
G0 F6000 X84.38 Y272.188
G1 F1200 X79.277 Y267.084 E213.01132
G0 F6000 X78.145 Y267.084
G1 F1200 X84.38 Y273.319 E214.09057
G0 F6000 X84.38 Y274.45
G1 F1200 X77.014 Y267.084 E215.36559
G0 F6000 X75.883 Y267.084
G1 F1200 X84.38 Y275.582 E216.83648
G0 F6000 X84.38 Y276.713
G1 F1200 X74.751 Y267.084 E218.50322
G0 F6000 X73.62 Y267.084
G1 F1200 X84.38 Y277.844 E220.36573
G0 F6000 X84.38 Y278.976
G1 F1200 X72.489 Y267.084 E222.4241
G0 F6000 X71.357 Y267.084
G1 F1200 X84.38 Y280.107 E224.67833
G0 F6000 X84.38 Y281.238
G1 F1200 X70.226 Y267.084 E227.12833
G0 F6000 X69.094 Y267.084
G1 F1200 X84.38 Y282.37 E229.77427
G0 F6000 X83.792 Y282.913
G1 F1200 X67.963 Y267.084 E232.51421
G0 F6000 X66.832 Y267.084
G1 F1200 X82.66 Y282.913 E235.25405
G0 F6000 X81.529 Y282.913
G1 F1200 X65.7 Y267.084 E237.99399
G0 F6000 X65.619 Y268.134
G1 F1200 X80.398 Y282.913 E240.55217
G0 F6000 X79.266 Y282.913
G1 F1200 X65.619 Y269.266 E242.91441
G0 F6000 X65.619 Y270.397
G1 F1200 X78.135 Y282.913 E245.08088
G0 F6000 X77.003 Y282.913
G1 F1200 X65.619 Y271.529 E247.05141
G0 F6000 X65.619 Y272.66
G1 F1200 X75.872 Y282.913 E248.82616
G0 F6000 X74.741 Y282.913
G1 F1200 X65.619 Y273.791 E250.40514
G0 F6000 X65.619 Y274.923
G1 F1200 X73.609 Y282.913 E251.78818
G0 F6000 X72.478 Y282.913
G1 F1200 X65.619 Y276.054 E252.97544
G0 F6000 X65.619 Y277.185
G1 F1200 X71.347 Y282.913 E253.96693
G0 F6000 X70.215 Y282.913
G1 F1200 X65.619 Y278.317 E254.76248
G0 F6000 X65.619 Y279.448
G1 F1200 X69.084 Y282.913 E255.36226
G0 F6000 X67.952 Y282.913
G1 F1200 X65.619 Y280.579 E255.76618
G0 F6000 X65.619 Y281.711
G1 F1200 X66.821 Y282.913 E255.97424
G1 F2700 E250.97424
G1 F300 Z0.72
;MESH:25x25x.5.stl(4)
G0 F6000 X264.366 Y287.1 Z0.72
;TYPE:WALL-OUTER
G1 F300 Z0.32
G1 F2700 E255.97424
G1 F1200 X285.634 Y287.1 E258.57739
G1 X285.634 Y262.9 E261.5394
G1 X264.366 Y262.9 E264.14255
G1 X264.366 Y287.1 E267.10456
G0 F6000 X265.166 Y286.3
;TYPE:WALL-INNER
G1 F1200 X284.834 Y286.3 E269.51187
G1 X284.834 Y263.7 E272.27805
G1 X265.166 Y263.7 E274.68536
G1 X265.166 Y286.3 E277.45154
G0 F6000 X265.966 Y285.5
G1 F1200 X284.034 Y285.5 E279.66301
G1 X284.034 Y264.5 E282.23336
G1 X265.966 Y264.5 E284.44483
G1 X265.966 Y285.5 E287.01517
G0 F6000 X266.686 Y284.78
;TYPE:SKIN
G1 F1200 X283.314 Y284.78 E289.0504
G1 X283.314 Y265.22 E291.44449
G1 X266.686 Y265.22 E293.47971
G1 X266.686 Y284.78 E295.8738
G0 F6000 X267.408 Y284.379
G1 F1200 X267.085 Y284.056 E295.92971
G0 F6000 X267.085 Y282.924
G1 F1200 X268.54 Y284.379 E296.18157
G0 F6000 X269.671 Y284.379
G1 F1200 X267.085 Y281.793 E296.62919
G0 F6000 X267.085 Y280.661
G1 F1200 X270.802 Y284.379 E297.27268
G0 F6000 X271.934 Y284.379
G1 F1200 X267.085 Y279.53 E298.11202
G0 F6000 X267.085 Y278.399
G1 F1200 X273.065 Y284.379 E299.14713
G0 F6000 X274.196 Y284.379
G1 F1200 X267.085 Y277.267 E300.3781
G0 F6000 X267.085 Y276.136
G1 F1200 X275.328 Y284.379 E301.80493
G0 F6000 X276.459 Y284.379
G1 F1200 X267.085 Y275.005 E303.42753
G0 F6000 X267.085 Y273.873
G1 F1200 X277.591 Y284.379 E305.24608
G0 F6000 X278.722 Y284.379
G1 F1200 X267.085 Y272.742 E307.2604
G0 F6000 X267.085 Y271.611
G1 F1200 X279.853 Y284.379 E309.47049
G0 F6000 X280.985 Y284.379
G1 F1200 X267.085 Y270.479 E311.87652
G0 F6000 X267.085 Y269.348
G1 F1200 X282.116 Y284.379 E314.47832
G0 F6000 X282.914 Y284.045
G1 F1200 X267.085 Y268.216 E317.21826
G0 F6000 X267.085 Y267.085
G1 F1200 X282.914 Y282.914 E319.95819
G0 F6000 X282.914 Y281.782
G1 F1200 X267.085 Y265.954 E322.69804
G0 F6000 X267.883 Y265.62
G1 F1200 X282.914 Y280.651 E325.29985
G0 F6000 X282.914 Y279.52
G1 F1200 X269.014 Y265.62 E327.70588
G0 F6000 X270.145 Y265.62
G1 F1200 X282.914 Y278.388 E329.91606
G0 F6000 X282.914 Y277.257
G1 F1200 X271.277 Y265.62 E331.93037
G0 F6000 X272.408 Y265.62
G1 F1200 X282.914 Y276.125 E333.74883
G0 F6000 X282.914 Y274.994
G1 F1200 X273.54 Y265.62 E335.37143
G0 F6000 X274.671 Y265.62
G1 F1200 X282.914 Y273.863 E336.79826
G0 F6000 X282.914 Y272.731
G1 F1200 X275.802 Y265.62 E338.02924
G0 F6000 X276.934 Y265.62
G1 F1200 X282.914 Y271.6 E339.06435
G0 F6000 X282.914 Y270.469
G1 F1200 X278.065 Y265.62 E339.90369
G0 F6000 X279.196 Y265.62
G1 F1200 X282.914 Y269.337 E340.54718
G0 F6000 X282.914 Y268.206
G1 F1200 X280.328 Y265.62 E340.9948
G0 F6000 X281.459 Y265.62
G1 F1200 X282.914 Y267.074 E341.24657
G0 F6000 X282.914 Y265.943
G1 F1200 X282.59 Y265.62 E341.30257
G1 F2700 E336.30257
G1 F300 Z0.72
;MESH:25x25x.5.stl(2)
G0 F6000 X262.9 Y85.634 Z0.72
;TYPE:WALL-OUTER
G1 F300 Z0.32
G1 F2700 E341.30257
G1 F1200 X287.1 Y85.634 E344.26458
G1 X287.1 Y64.366 E346.86773
G1 X262.9 Y64.366 E349.82974
G1 X262.9 Y85.634 E352.43289
G0 F6000 X263.7 Y84.834
;TYPE:WALL-INNER
G1 F1200 X286.3 Y84.834 E355.19907
G1 X286.3 Y65.166 E357.60638
G1 X263.7 Y65.166 E360.37255
G1 X263.7 Y84.834 E362.77986
G0 F6000 X264.5 Y84.034
G1 F1200 X285.5 Y84.034 E365.35021
G1 X285.5 Y65.966 E367.56168
G1 X264.5 Y65.966 E370.13203
G1 X264.5 Y84.034 E372.3435
G0 F6000 X265.22 Y83.314
;TYPE:SKIN
G1 F1200 X284.78 Y83.314 E374.73759
G1 X284.78 Y66.686 E376.77281
G1 X265.22 Y66.686 E379.1669
G1 X265.22 Y83.314 E381.20213
G0 F6000 X266.196 Y82.913
G1 F1200 X265.619 Y82.336 E381.302
G0 F6000 X265.619 Y81.205
G1 F1200 X267.327 Y82.913 E381.59765
G0 F6000 X268.458 Y82.913
G1 F1200 X265.619 Y80.074 E382.08907
G0 F6000 X265.619 Y78.942
G1 F1200 X269.59 Y82.913 E382.77643
G0 F6000 X270.721 Y82.913
G1 F1200 X265.619 Y77.811 E383.65957
G0 F6000 X265.619 Y76.68
G1 F1200 X271.852 Y82.913 E384.73848
G0 F6000 X272.984 Y82.913
G1 F1200 X265.619 Y75.548 E386.01333
G0 F6000 X265.619 Y74.417
G1 F1200 X274.115 Y82.913 E387.48395
G0 F6000 X275.246 Y82.913
G1 F1200 X265.619 Y73.285 E389.15043
G0 F6000 X265.619 Y72.154
G1 F1200 X276.378 Y82.913 E391.01277
G0 F6000 X277.509 Y82.913
G1 F1200 X265.619 Y71.023 E393.07088
G0 F6000 X265.619 Y69.891
G1 F1200 X278.641 Y82.913 E395.32494
G0 F6000 X279.772 Y82.913
G1 F1200 X265.619 Y68.76 E397.77476
G0 F6000 X265.619 Y67.629
G1 F1200 X280.903 Y82.913 E400.42036
G0 F6000 X282.035 Y82.913
G1 F1200 X266.207 Y67.086 E403.16004
G0 F6000 X267.338 Y67.086
G1 F1200 X283.166 Y82.913 E405.89971
G0 F6000 X284.297 Y82.913
G1 F1200 X268.47 Y67.086 E408.6393
G0 F6000 X269.601 Y67.086
G1 F1200 X284.379 Y81.863 E411.19723
G0 F6000 X284.379 Y80.732
G1 F1200 X270.732 Y67.086 E413.55938
G0 F6000 X271.864 Y67.086
G1 F1200 X284.379 Y79.601 E415.72567
G0 F6000 X284.379 Y78.469
G1 F1200 X272.995 Y67.086 E417.69611
G0 F6000 X274.126 Y67.086
G1 F1200 X284.379 Y77.338 E419.47078
G0 F6000 X284.379 Y76.207
G1 F1200 X275.258 Y67.086 E421.04959
G0 F6000 X276.389 Y67.086
G1 F1200 X284.379 Y75.075 E422.43254
G0 F6000 X284.379 Y73.944
G1 F1200 X277.521 Y67.086 E423.61963
G0 F6000 X278.652 Y67.086
G1 F1200 X284.379 Y72.812 E424.61086
G0 F6000 X284.379 Y71.681
G1 F1200 X279.783 Y67.086 E425.40632
G0 F6000 X280.915 Y67.086
G1 F1200 X284.379 Y70.55 E426.00593
G0 F6000 X284.379 Y69.418
G1 F1200 X282.046 Y67.086 E426.40967
G0 F6000 X283.177 Y67.086
G1 F1200 X284.379 Y68.287 E426.61765
G1 F2700 E421.61765
G1 F300 Z0.72
;MESH:NONMESH
G0 F6000 X85.634 Y87.1 Z0.72
;TIME_ELAPSED:207.934560
;LAYER:1
M106 S127.5
;MESH:25x25x.5.stl(3)
G0 F9000 X85.634 Y87.1 Z1.04
;TYPE:WALL-OUTER
G1 F300 Z0.64
G1 F2700 E426.61765
G1 F1800 X85.634 Y62.9 E429.19331
G1 X64.366 Y62.9 E431.45692
G1 X64.366 Y87.1 E434.03258
G1 X85.634 Y87.1 E436.29619
G0 F9000 X84.834 Y86.3
;TYPE:WALL-INNER
G1 F1800 X84.834 Y63.7 E438.70156
G1 X65.166 Y63.7 E440.79487
G1 X65.166 Y86.3 E443.20025
G1 X84.834 Y86.3 E445.29356
G0 F9000 X84.034 Y85.5
G1 F1800 X84.034 Y64.5 E447.52864
G1 X65.966 Y64.5 E449.45166
G1 X65.966 Y85.5 E451.68674
G1 X84.034 Y85.5 E453.60976
G0 F9000 X83.314 Y84.78
;TYPE:SKIN
G1 F1800 X83.314 Y65.22 E455.69158
G1 X66.686 Y65.22 E457.46134
G1 X66.686 Y84.78 E459.54316
G1 X83.314 Y84.78 E461.31292
G0 F9000 X81.932 Y84.379
G1 F1800 X82.913 Y83.398 E461.46058
G0 F9000 X82.913 Y82.266
G1 F1800 X80.801 Y84.379 E461.77855
G0 F9000 X79.669 Y84.379
G1 F1800 X82.913 Y81.135 E462.26683
G0 F9000 X82.913 Y80.004
G1 F1800 X78.538 Y84.379 E462.92534
G0 F9000 X77.406 Y84.379
G1 F1800 X82.913 Y78.872 E463.75425
G0 F9000 X82.913 Y77.741
G1 F1800 X76.275 Y84.379 E464.75339
G0 F9000 X75.144 Y84.379
G1 F1800 X82.913 Y76.61 E465.92276
G0 F9000 X82.913 Y75.478
G1 F1800 X74.012 Y84.379 E467.26253
G0 F9000 X72.881 Y84.379
G1 F1800 X82.913 Y74.347 E468.77252
G0 F9000 X82.913 Y73.215
G1 F1800 X71.75 Y84.379 E470.45283
G0 F9000 X70.618 Y84.379
G1 F1800 X82.913 Y72.084 E472.30346
G0 F9000 X82.913 Y70.953
G1 F1800 X69.487 Y84.379 E474.32431
G0 F9000 X68.356 Y84.379
G1 F1800 X82.913 Y69.821 E476.51548
G0 F9000 X82.913 Y68.69
