;FLAVOR:Marlin
;TIME:4145
;Filament used: 9.38612m
;Layer height: 0.32
;MINX:15.05
;MINY:92.858
;MINZ:0.32
;MAXX:334.951
;MAXY:257.119
;MAXZ:1.36
;Generated with Cura_SteamEngine 5.0.0
M140 S60
M105
M190 S60
M104 S190
M105
M109 S190
M82 ;absolute extrusion mode
M201 X500.00 Y500.00 Z100.00 E5000.00 ;Setup machine max acceleration
M203 X500.00 Y500.00 Z10.00 E50.00 ;Setup machine max feedrate
M204 P500.00 R1000.00 T500.00 ;Setup Print/Retract/Travel acceleration
M205 X8.00 Y8.00 Z0.40 E5.00 ;Setup Jerk
M220 S100 ;Reset Feedrate
M221 S100 ;Reset Flowrate

G28 ;Home
M420 S1 Z2 ;Enable ABL using saved Mesh and Fade Height

G92 E0 ;Reset Extruder
G1 Z2.0 F3000 ;Move Z Axis up
G1 X10.1 Y20 Z0.28 F5000.0 ;Move to start position
G1 X10.1 Y200.0 Z0.28 F1500.0 E15 ;Draw the first line
G1 X10.4 Y200.0 Z0.28 F5000.0 ;Move to side a little
G1 X10.4 Y20 Z0.28 F1500.0 E30 ;Draw the second line
G92 E0 ;Reset Extruder
G1 Z2.0 F3000 ;Move Z Axis up

G92 E0
G92 E0
G1 F2700 E-5
;LAYER_COUNT:3
;LAYER:0
M107
G1 F300 Z0.72
G0 F6000 X53.121 Y105.661 Z0.72
G1 F300 Z0.72
G0 F6000 X44.287 Y112.969
;TYPE:SKIRT
G1 F300 Z0.32
G1 F2700 E0
G1 F1200 X44.538 Y112.657 E0.05636
G1 X45.19 Y111.888 E0.19827
G1 X45.419 Y111.631 E0.24673
G1 X46.098 Y110.9 E0.38716
G1 X46.373 Y110.618 E0.4426
G1 X47.083 Y109.929 E0.58186
G1 X47.354 Y109.678 E0.63385
G1 X48.089 Y109.031 E0.77168
G1 X48.359 Y108.805 E0.82124
G1 X49.043 Y108.257 E0.94461
G1 X49.344 Y108.028 E0.99784
G1 X50.29 Y107.35 E1.16167
G1 X51.117 Y106.803 E1.30123
G1 X51.778 Y106.4 E1.4102
G1 X52.086 Y106.222 E1.46027
G1 X53.121 Y105.661 E1.62598
G1 X53.701 Y105.371 E1.71726
G1 X54.04 Y105.212 E1.76996
G1 X55.118 Y104.744 E1.93538
G1 X55.717 Y104.507 E2.02605
G1 X56.071 Y104.377 E2.07913
G1 X57.201 Y104 E2.24681
G1 X58.155 Y103.726 E2.38652
G1 X58.966 Y103.526 E2.50409
G1 X59.719 Y103.371 E2.6123
G1 X60.444 Y103.258 E2.71559
G1 X61.249 Y103.164 E2.82966
G1 X62.514 Y103.058 E3.00835
G1 X64.675 Y102.948 E3.31292
G1 X67.229 Y102.89 E3.6725
G1 X70.167 Y102.873 E4.08605
G1 X70.46 Y102.365 E4.1686
G1 X70.854 Y101.746 E4.27188
G1 X71.266 Y101.163 E4.37236
G1 X71.651 Y100.665 E4.46097
G1 X72.086 Y100.154 E4.55542
G1 X72.476 Y99.731 E4.63641
G1 X72.84 Y99.368 E4.70877
G1 X73.292 Y98.947 E4.79571
G1 X73.659 Y98.626 E4.86434
G1 X74.171 Y98.218 E4.95649
G1 X74.784 Y97.773 E5.06311
G1 X75.24 Y97.468 E5.14033
G1 X75.603 Y97.24 E5.20067
G1 X76.2 Y96.892 E5.29794
G1 X76.793 Y96.578 E5.39239
G1 X77.436 Y96.267 E5.49292
G1 X78.095 Y95.976 E5.59432
G1 X78.769 Y95.706 E5.69652
G1 X79.597 Y95.408 E5.82039
G1 X80.431 Y95.139 E5.94373
G1 X81.616 Y94.804 E6.11707
G1 X81.987 Y94.711 E6.1709
G1 X82.768 Y94.543 E6.28335
G1 X83.565 Y94.407 E6.39715
G1 X84.349 Y94.307 E6.5084
G1 X85.131 Y94.236 E6.61893
G1 X85.916 Y94.192 E6.72959
G1 X86.705 Y94.173 E6.84068
G1 X87.565 Y94.18 E6.96174
G1 X88.756 Y94.23 E7.12953
G1 X89.836 Y94.313 E7.28199
G1 X91.179 Y94.466 E7.47225
G1 X92.281 Y94.625 E7.62897
G1 X93.653 Y94.869 E7.82512
G1 X94.787 Y95.099 E7.98799
G1 X96.509 Y95.508 E8.23712
G1 X98.389 Y96.026 E8.5116
G1 X99.137 Y96.253 E8.62163
G1 X99.395 Y96.124 E8.66223
G1 X100.446 Y95.629 E8.82575
G1 X100.756 Y95.492 E8.87346
G1 X101.707 Y95.095 E9.01851
G1 X102.013 Y94.975 E9.06478
G1 X102.976 Y94.621 E9.2092
G1 X103.306 Y94.508 E9.25829
G1 X104.283 Y94.199 E9.40253
G1 X104.608 Y94.104 E9.45019
G1 X105.601 Y93.838 E9.59489
G1 X105.939 Y93.756 E9.64384
G1 X106.955 Y93.533 E9.79026
G1 X107.294 Y93.466 E9.8389
G1 X108.339 Y93.286 E9.98815
G1 X109.728 Y93.1 E10.18541
G1 X110.042 Y93.066 E10.22986
G1 X111.438 Y92.949 E10.42705
G1 X112.849 Y92.884 E10.62587
G1 X114.292 Y92.866 E10.829
G1 X115.755 Y92.895 E11.03496
G1 X117.272 Y92.97 E11.24875
G1 X119.054 Y93.108 E11.50033
G1 X120.225 Y93.223 E11.66595
G1 X122.128 Y93.385 E11.93478
G1 X122.598 Y93.404 E12.00099
G1 X122.855 Y93.4 E12.03717
G1 X123.274 Y93.304 E12.09768
G1 X124.051 Y93.157 E12.20898
G1 X124.782 Y93.053 E12.31291
G1 X125.49 Y92.976 E12.41316
G1 X126.589 Y92.9 E12.56822
G1 X127.513 Y92.864 E12.69838
G1 X129.03 Y92.858 E12.91191
G1 X130.876 Y92.912 E13.17185
G1 X133.574 Y93.074 E13.5523
G1 X138.006 Y93.479 E14.17873
G1 X143.003 Y94.054 E14.88674
G1 X146.849 Y94.578 E15.43309
G1 X147.716 Y94.709 E15.55651
G1 X149.583 Y95.036 E15.82331
G1 X149.891 Y95.096 E15.86747
G1 X151.735 Y95.498 E16.13313
G1 X152.096 Y95.587 E16.18546
G1 X153.378 Y95.933 E16.37237
G1 X153.713 Y96.031 E16.4215
G1 X154.842 Y96.392 E16.58834
G1 X155.173 Y96.507 E16.63766
G1 X156.161 Y96.874 E16.78601
G1 X156.49 Y97.004 E16.8358
G1 X157.461 Y97.417 E16.98433
G1 X157.76 Y97.552 E17.03051
G1 X158.732 Y98.016 E17.18211
G1 X159.993 Y98.676 E17.38245
G1 X161.247 Y99.392 E17.5857
G1 X162.499 Y100.162 E17.79259
G1 X164.172 Y101.26 E18.07426
G1 X165.674 Y102.309 E18.33214
G1 X166.783 Y100.332 E18.65121
G1 X167.554 Y99.061 E18.86045
G1 X167.78 Y98.711 E18.91909
G1 X168.285 Y97.973 E19.04496
G1 X168.932 Y97.154 E19.19188
G1 X169.111 Y96.957 E19.22934
G1 X169.664 Y96.408 E19.33903
G1 X170.271 Y95.918 E19.44883
G1 X170.924 Y95.493 E19.5585
G1 X171.618 Y95.137 E19.66828
G1 X172.344 Y94.854 E19.77796
G1 X173.095 Y94.647 E19.88761
G1 X173.864 Y94.518 E19.99737
G1 X174.66 Y94.468 E20.10963
G1 X174.86 Y94.466 E20.13778
G1 X175.639 Y94.499 E20.24753
G1 X176.41 Y94.61 E20.35717
G1 X177.166 Y94.801 E20.46693
G1 X177.899 Y95.067 E20.57669
G1 X178.6 Y95.408 E20.68641
G1 X179.537 Y96.017 E20.84371
G1 X179.817 Y96.23 E20.89323
G1 X180.413 Y96.733 E21.00301
G1 X180.821 Y97.146 E21.08472
G1 X181.006 Y97.348 E21.12328
G1 X181.537 Y97.996 E21.2412
G1 X181.681 Y98.193 E21.27555
G1 X181.986 Y98.644 E21.35218
G1 X182.217 Y99.012 E21.41334
G1 X183.304 Y100.674 E21.69287
G1 X184.953 Y103.012 E22.09558
G1 X185.297 Y102.792 E22.15306
G1 X187.88 Y101.236 E22.5775
G1 X188.192 Y101.058 E22.62806
G1 X190.004 Y100.08 E22.91789
G1 X190.322 Y99.918 E22.96813
G1 X191.989 Y99.117 E23.22845
G1 X192.3 Y98.976 E23.27652
G1 X193.815 Y98.33 E23.50834
G1 X194.128 Y98.205 E23.55578
G1 X195.686 Y97.621 E23.78998
G1 X195.989 Y97.514 E23.83521
G1 X197.611 Y96.983 E24.07544
G1 X199.612 Y96.41 E24.36841
G1 X201.695 Y95.894 E24.67047
G1 X204.584 Y95.283 E25.08612
G1 X208.151 Y94.648 E25.59609
G1 X212.206 Y94.027 E26.17351
G1 X213.066 Y93.907 E26.29574
G1 X216.213 Y93.499 E26.74241
G1 X217.159 Y93.393 E26.87639
G1 X218.911 Y93.255 E27.12376
G1 X219.257 Y93.236 E27.17254
G1 X220.467 Y93.196 E27.34295
G1 X220.806 Y93.193 E27.39067
G1 X222.102 Y93.208 E27.5731
G1 X222.444 Y93.219 E27.62126
G1 X224.05 Y93.314 E27.84771
G1 X225.297 Y93.423 E28.02391
G1 X226.426 Y93.543 E28.18372
G1 X228.038 Y93.674 E28.41137
G1 X228.405 Y93.68 E28.46303
G1 X228.77 Y93.605 E28.51548
G1 X229.715 Y93.378 E28.65228
G1 X230.522 Y93.221 E28.768
G1 X231.359 Y93.092 E28.8872
G1 X232.222 Y92.994 E29.00946
G1 X233.102 Y92.925 E29.1337
G1 X233.85 Y92.888 E29.23912
G1 X234.733 Y92.871 E29.36343
G1 X235.884 Y92.886 E29.52546
G1 X237.198 Y92.947 E29.71061
G1 X238.543 Y93.051 E29.90049
G1 X240.013 Y93.205 E30.10854
G1 X241.581 Y93.411 E30.33114
G1 X243.355 Y93.689 E30.58389
G1 X243.66 Y93.743 E30.62749
G1 X245.043 Y94.018 E30.82597
G1 X245.385 Y94.094 E30.87528
G1 X246.392 Y94.343 E31.02129
G1 X246.734 Y94.436 E31.07118
G1 X247.578 Y94.687 E31.19512
G1 X247.908 Y94.794 E31.24395
G1 X248.716 Y95.075 E31.36436
G1 X249.064 Y95.205 E31.41665
G1 X249.852 Y95.523 E31.53626
G1 X250.942 Y96.011 E31.70436
G1 X251.237 Y96.153 E31.75044
G1 X253.455 Y95.493 E32.07617
G1 X253.796 Y95.401 E32.12588
G1 X255.459 Y94.992 E32.36694
G1 X255.824 Y94.912 E32.41953
G1 X257.244 Y94.636 E32.62315
G1 X257.62 Y94.572 E32.67684
G1 X258.846 Y94.397 E32.85115
G1 X259.209 Y94.354 E32.9026
G1 X260.273 Y94.254 E33.05303
G1 X260.683 Y94.227 E33.11087
G1 X262.031 Y94.179 E33.30073
G1 X262.996 Y94.183 E33.43656
G1 X263.839 Y94.217 E33.55531
G1 X264.666 Y94.278 E33.67203
G1 X266.388 Y94.458 E33.91574
G1 X267.464 Y94.607 E34.06864
G1 X267.829 Y94.666 E34.12068
G1 X268.514 Y94.795 E34.21879
G1 X268.87 Y94.871 E34.27003
G1 X269.732 Y95.085 E34.39505
G1 X270.177 Y95.213 E34.46023
G1 X270.964 Y95.473 E34.57689
G1 X271.716 Y95.76 E34.69019
G1 X272.472 Y96.09 E34.80629
G1 X273.221 Y96.454 E34.92351
G1 X273.754 Y96.732 E35.00813
G1 X274.458 Y97.131 E35.12203
G1 X275.126 Y97.548 E35.23287
G1 X275.766 Y97.992 E35.34251
G1 X276.305 Y98.405 E35.43809
G1 X276.807 Y98.827 E35.5304
G1 X277.257 Y99.241 E35.61647
G1 X277.759 Y99.75 E35.71709
G1 X278.176 Y100.217 E35.80522
G1 X278.577 Y100.709 E35.89456
G1 X278.99 Y101.272 E35.99284
G1 X279.329 Y101.781 E36.07892
G1 X279.681 Y102.367 E36.17514
G1 X279.729 Y102.453 E36.18901
G1 X281.711 Y102.414 E36.46804
G1 X282.028 Y102.415 E36.51266
G1 X284.136 Y102.462 E36.80945
G1 X284.495 Y102.478 E36.86003
G1 X286.246 Y102.6 E37.1071
G1 X286.606 Y102.634 E37.15799
G1 X287.932 Y102.79 E37.34592
G1 X288.3 Y102.842 E37.39824
G1 X289.458 Y103.036 E37.56351
G1 X289.819 Y103.106 E37.61527
G1 X290.811 Y103.322 E37.75817
G1 X291.17 Y103.409 E37.81016
G1 X292.024 Y103.639 E37.93465
G1 X292.377 Y103.744 E37.98649
G1 X293.194 Y104.007 E38.1073
G1 X293.575 Y104.141 E38.16415
G1 X294.677 Y104.568 E38.3305
G1 X295.488 Y104.925 E38.45522
G1 X296.385 Y105.365 E38.59586
G1 X296.968 Y105.678 E38.689
G1 X297.273 Y105.851 E38.73835
G1 X297.84 Y106.19 E38.83134
G1 X298.147 Y106.383 E38.88238
G1 X299.025 Y106.974 E39.03135
G1 X299.732 Y107.492 E39.15472
G1 X300.499 Y108.103 E39.29275
G1 X301.229 Y108.733 E39.42848
G1 X301.948 Y109.402 E39.56671
G1 X302.623 Y110.077 E39.70108
G1 X303.287 Y110.786 E39.83781
G1 X303.905 Y111.488 E39.96945
G1 X304.364 Y112.035 E40.06996
G1 X304.689 Y112.437 E40.14273
G1 X305.616 Y113.543 E40.34585
G1 X305.813 Y113.749 E40.38597
G1 X306.06 Y113.897 E40.4265
G1 X306.533 Y114.158 E40.50255
G1 X307.58 Y114.693 E40.66804
G1 X309.587 Y115.765 E40.98831
G1 X309.885 Y115.933 E41.03647
G1 X311.703 Y117.012 E41.33404
G1 X312.008 Y117.203 E41.38469
G1 X313.344 Y118.084 E41.60995
G1 X313.634 Y118.285 E41.65962
G1 X314.767 Y119.11 E41.85689
G1 X315.053 Y119.329 E41.9076
G1 X315.984 Y120.077 E42.0757
G1 X316.263 Y120.312 E42.12704
G1 X317.032 Y120.993 E42.27163
G1 X317.298 Y121.241 E42.32282
G1 X317.932 Y121.859 E42.44744
G1 X318.171 Y122.102 E42.49541
G1 X318.698 Y122.664 E42.60386
G1 X318.939 Y122.934 E42.6548
G1 X319.423 Y123.502 E42.75984
G1 X319.662 Y123.798 E42.81339
G1 X320.115 Y124.387 E42.91798
G1 X320.335 Y124.688 E42.97046
G1 X320.807 Y125.376 E43.0879
G1 X321.063 Y125.774 E43.15451
G1 X321.254 Y126.088 E43.20624
G1 X321.528 Y126.563 E43.28342
G1 X321.716 Y126.908 E43.33873
G1 X322.149 Y127.774 E43.47501
G1 X322.468 Y128.495 E43.58599
G1 X322.645 Y128.936 E43.65287
G1 X322.785 Y129.313 E43.70948
G1 X323.03 Y130.047 E43.8184
G1 X323.234 Y130.747 E43.92103
G1 X323.391 Y131.384 E44.01337
G1 X323.479 Y131.794 E44.0724
G1 X323.55 Y132.175 E44.12695
G1 X323.662 Y132.883 E44.22784
G1 X323.744 Y133.576 E44.32607
G1 X323.8 Y134.287 E44.42646
G1 X323.828 Y135.034 E44.53168
G1 X323.825 Y135.767 E44.63485
G1 X323.798 Y136.439 E44.72952
G1 X324.712 Y137.332 E44.90938
G1 X326.082 Y138.759 E45.18782
G1 X327.404 Y140.234 E45.46662
G1 X328.179 Y141.166 E45.63724
G1 X328.412 Y141.462 E45.69026
G1 X328.953 Y142.186 E45.81748
G1 X329.15 Y142.463 E45.86532
G1 X329.425 Y142.877 E45.93528
G1 X329.909 Y143.677 E46.06689
G1 X330.282 Y144.361 E46.17655
G1 X330.638 Y145.071 E46.28835
G1 X330.965 Y145.78 E46.39825
G1 X331.294 Y146.566 E46.51819
G1 X331.653 Y147.527 E46.66258
G1 X331.844 Y148.118 E46.75001
G1 X332.1 Y149.028 E46.88307
G1 X332.314 Y149.926 E47.01301
G1 X332.43 Y150.499 E47.0953
G1 X332.494 Y150.862 E47.14718
G1 X332.579 Y151.42 E47.22663
G1 X332.626 Y151.789 E47.27899
G1 X332.676 Y152.276 E47.3479
G1 X332.708 Y152.7 E47.40775
G1 X332.739 Y153.483 E47.51805
G1 X332.736 Y154.207 E47.61996
G1 X332.699 Y154.917 E47.72003
G1 X332.636 Y155.573 E47.81279
G1 X332.543 Y156.238 E47.9073
G1 X332.428 Y156.855 E47.99565
G1 X332.277 Y157.515 E48.09095
G1 X332.194 Y157.827 E48.13639
G1 X332.053 Y158.294 E48.20505
G1 X331.845 Y158.913 E48.29697
G1 X331.672 Y159.378 E48.36681
G1 X331.407 Y160.001 E48.4621
G1 X331.161 Y160.523 E48.54333
G1 X331.929 Y162.612 E48.85661
G1 X332.041 Y162.941 E48.90553
G1 X332.674 Y164.943 E49.20107
G1 X332.774 Y165.287 E49.2515
G1 X333.311 Y167.313 E49.54652
G1 X333.394 Y167.655 E49.59605
G1 X333.842 Y169.728 E49.89458
G1 X333.909 Y170.077 E49.9446
G1 X334.266 Y172.208 E50.24873
G1 X334.314 Y172.543 E50.29637
G1 X334.584 Y174.754 E50.60989
G1 X334.615 Y175.063 E50.65361
G1 X334.819 Y177.657 E51.01986
G1 X334.928 Y180.319 E51.39487
G1 X334.951 Y182.961 E51.76676
G1 X334.895 Y185.752 E52.15969
G1 X334.779 Y188.082 E52.48806
G1 X334.755 Y188.407 E52.53393
G1 X334.55 Y190.613 E52.84578
G1 X334.51 Y190.964 E52.8955
G1 X334.245 Y192.857 E53.16456
G1 X334.191 Y193.189 E53.2119
G1 X333.886 Y194.834 E53.44739
G1 X333.817 Y195.162 E53.49457
G1 X333.447 Y196.76 E53.72545
G1 X333.359 Y197.104 E53.77543
G1 X332.92 Y198.665 E54.00368
G1 X332.82 Y198.993 E54.05194
G1 X332.312 Y200.529 E54.27966
G1 X332.2 Y200.845 E54.32685
G1 X331.515 Y202.63 E54.59597
G1 X331.016 Y203.804 E54.77553
G1 X330.583 Y204.762 E54.9235
G1 X329.687 Y206.605 E55.21195
G1 X329.522 Y206.925 E55.26263
G1 X328.77 Y208.302 E55.48347
G1 X328.586 Y208.62 E55.53518
G1 X327.86 Y209.809 E55.73128
G1 X327.661 Y210.118 E55.78301
G1 X326.975 Y211.128 E55.95487
G1 X326.769 Y211.417 E56.00482
G1 X326.122 Y212.28 E56.15664
G1 X325.904 Y212.556 E56.20615
G1 X325.222 Y213.383 E56.35703
G1 X324.986 Y213.656 E56.40782
G1 X324.267 Y214.448 E56.55839
G1 X324.018 Y214.71 E56.60927
G1 X323.254 Y215.475 E56.76145
G1 X323.006 Y215.713 E56.80983
G1 X322.197 Y216.453 E56.96415
G1 X321.946 Y216.672 E57.01104
G1 X321.085 Y217.393 E57.16911
G1 X319.921 Y218.296 E57.37648
G1 X318.717 Y219.159 E57.58499
G1 X317.466 Y219.993 E57.79662
G1 X315.98 Y220.913 E58.04262
G1 X314.483 Y221.779 E58.28605
G1 X312.298 Y222.971 E58.6364
G1 X312.034 Y223.502 E58.71987
G1 X311.847 Y223.855 E58.77609
G1 X311.25 Y224.912 E58.94697
G1 X311.077 Y225.203 E58.99462
G1 X310.435 Y226.23 E59.1651
G1 X310.235 Y226.534 E59.21632
G1 X309.55 Y227.521 E59.38542
G1 X309.351 Y227.795 E59.43309
G1 X308.627 Y228.745 E59.60121
G1 X308.408 Y229.019 E59.65059
G1 X307.649 Y229.925 E59.81695
G1 X307.42 Y230.186 E59.86582
G1 X306.629 Y231.047 E60.03039
G1 X306.373 Y231.312 E60.08226
G1 X305.553 Y232.122 E60.24449
G1 X305.29 Y232.369 E60.29528
G1 X304.446 Y233.127 E60.45496
G1 X304.177 Y233.358 E60.50486
G1 X303.4 Y233.993 E60.64611
G1 X303.121 Y234.21 E60.69586
G1 X302.139 Y234.931 E60.86734
G1 X301.414 Y235.422 E60.99059
G1 X301.117 Y235.613 E61.04029
G1 X300.386 Y236.06 E61.1609
G1 X300.074 Y236.24 E61.2116
G1 X299.337 Y236.644 E61.3299
G1 X299.001 Y236.818 E61.38316
G1 X298.331 Y237.143 E61.48798
G1 X297.41 Y237.547 E61.62954
G1 X296.492 Y237.902 E61.76808
G1 X295.703 Y238.17 E61.88537
G1 X294.883 Y238.409 E62.00559
G1 X293.953 Y238.637 E62.14037
G1 X293.069 Y238.816 E62.26733
G1 X292.197 Y238.954 E62.39159
G1 X291.388 Y239.045 E62.50618
G1 X290.575 Y239.098 E62.62086
G1 X289.809 Y239.112 E62.7287
G1 X289.117 Y239.094 E62.82614
G1 X288.444 Y239.049 E62.92108
G1 X287.659 Y238.961 E63.03226
G1 X287.269 Y238.902 E63.08778
G1 X286.634 Y238.79 E63.17854
G1 X286.199 Y238.701 E63.24104
G1 X285.685 Y238.579 E63.3154
G1 X285.316 Y238.481 E63.36914
G1 X284.574 Y238.265 E63.47792
G1 X283.806 Y238.009 E63.59187
G1 X283.265 Y238.502 E63.69489
G1 X282.985 Y238.745 E63.74707
G1 X281.551 Y239.93 E64.00892
G1 X281.267 Y240.153 E64.05975
G1 X279.959 Y241.133 E64.2898
G1 X279.684 Y241.33 E64.33741
G1 X278.492 Y242.143 E64.54051
G1 X278.211 Y242.325 E64.58763
G1 X277.008 Y243.07 E64.7868
G1 X276.711 Y243.245 E64.83532
G1 X275.5 Y243.921 E65.03054
G1 X275.181 Y244.089 E65.08129
G1 X273.963 Y244.695 E65.27278
G1 X273.622 Y244.855 E65.3258
G1 X272.396 Y245.391 E65.51414
G1 X272.063 Y245.527 E65.56477
G1 X270.958 Y245.949 E65.73126
G1 X270.626 Y246.067 E65.78085
G1 X269.628 Y246.396 E65.92877
G1 X268.321 Y246.773 E66.12023
G1 X267.987 Y246.86 E66.16882
G1 X266.99 Y247.094 E66.31296
G1 X266.641 Y247.167 E66.36315
