;FLAVOR:Marlin
;TIME:4105
;Filament used: 7.78051m
;Layer height: 0.32
;MINX:154.498
;MINY:147.987
;MINZ:0.32
;MAXX:195.502
;MAXY:201.531
;MAXZ:34.32
;Generated with Cura_SteamEngine 5.0.0
M140 S60
M105
M190 S60
M104 S190
M105
M109 S190
M82 ;absolute extrusion mode
M201 X500.00 Y500.00 Z100.00 E5000.00 ;Setup machine max acceleration
M203 X500.00 Y500.00 Z10.00 E50.00 ;Setup machine max feedrate
M204 P500.00 R1000.00 T500.00 ;Setup Print/Retract/Travel acceleration
M205 X8.00 Y8.00 Z0.40 E5.00 ;Setup Jerk
M220 S100 ;Reset Feedrate
M221 S100 ;Reset Flowrate

G28 ;Home
M420 S1 Z2 ;Enable ABL using saved Mesh and Fade Height

G92 E0 ;Reset Extruder
G1 Z2.0 F3000 ;Move Z Axis up
G1 X10.1 Y20 Z0.28 F5000.0 ;Move to start position
G1 X10.1 Y200.0 Z0.28 F1500.0 E15 ;Draw the first line
G1 X10.4 Y200.0 Z0.28 F5000.0 ;Move to side a little
G1 X10.4 Y20 Z0.28 F1500.0 E30 ;Draw the second line
G92 E0 ;Reset Extruder
G1 Z2.0 F3000 ;Move Z Axis up

G92 E0
G92 E0
G1 F2100 E-6
;LAYER_COUNT:106
;LAYER:0
M107
G1 F300 Z0.72
;MESH:Ender_5_X_Stepper_Cover_Chain_Guide.stl
G0 F6000 X158.809 Y157.166 Z0.72
;TYPE:WALL-OUTER
G1 F300 Z0.32
G1 F2100 E0
G1 F1200 X158.278 Y157.056 E0.06637
G1 X157.872 Y156.908 E0.11926
G1 X157.602 Y156.785 E0.15558
G1 X157.555 Y156.759 E0.16215
G1 X157.073 Y156.453 E0.23203
G1 X157.025 Y156.417 E0.23938
G1 X156.643 Y156.084 E0.3014
G1 X156.317 Y155.722 E0.36103
G1 X156.279 Y155.673 E0.36862
G1 X155.996 Y155.234 E0.43255
G1 X155.748 Y154.687 E0.50606
G1 F1158 X155.612 Y154.322 E0.55547
G1 F1075 X155.499 Y153.959 E0.60741
G1 F1040.1 X155.481 Y153.688 E0.64576
G1 F1051.5 X155.462 Y153.416 E0.68385
G1 F1048 X155.485 Y152.901 E0.7561
G1 F1065.5 X155.573 Y152.547 E0.80638
G1 F1140.1 X155.715 Y152.153 E0.86033
G1 F1197 X155.93 Y151.648 E0.92768
G1 F1200 X156.231 Y151.149 E0.99901
G1 X156.425 Y150.91 E1.03668
G1 X156.674 Y150.632 E1.08236
G1 X156.888 Y150.449 E1.11683
G1 X157.257 Y150.169 E1.17352
G1 X157.529 Y150.017 E1.21166
G1 F1186.7 X157.787 Y149.87 E1.24841
G1 F1134.8 X158.014 Y149.753 E1.28147
G1 F1063.1 X158.242 Y149.636 E1.31687
G1 F1006.3 X158.329 Y149.589 E1.33131
G1 F996.9 X158.663 Y149.548 E1.38089
G1 F1026.7 X158.997 Y149.506 E1.42904
G1 F1050.3 X159.519 Y149.492 E1.50206
G1 F1049.2 X159.769 Y149.512 E1.53717
G1 F1033.4 X160.02 Y149.533 E1.57297
G1 F1040.1 X160.092 Y149.563 E1.58399
G1 F1088.4 X160.41 Y149.684 E1.6299
G1 F1160.8 X160.728 Y149.805 E1.67295
G1 F1200 X160.791 Y149.828 E1.68116
G1 X161.281 Y150.065 E1.74778
G1 X161.336 Y150.098 E1.75563
G1 X161.767 Y150.4 E1.82005
G1 X161.816 Y150.44 E1.82779
G1 X162.205 Y150.819 E1.89426
G1 X162.246 Y150.865 E1.90181
G1 X162.566 Y151.29 E1.96692
G1 X162.719 Y151.563 E2.00523
G1 X162.883 Y151.894 E2.05044
G1 X162.905 Y151.949 E2.05769
G1 X163.068 Y152.455 E2.12276
G1 X163.083 Y152.52 E2.13092
G1 X163.172 Y153.137 E2.20722
G1 X163.176 Y153.646 E2.26953
G1 X163.169 Y153.717 E2.27826
G1 X163.053 Y154.357 E2.35787
G1 X162.892 Y154.844 E2.42065
G1 X162.868 Y154.9 E2.42811
G1 X162.608 Y155.398 E2.49687
G1 X162.274 Y155.854 E2.56605
G1 X162.031 Y156.108 E2.60908
G1 X161.765 Y156.356 E2.65359
G1 X161.417 Y156.594 E2.70519
G1 X161.204 Y156.731 E2.73619
G1 X160.705 Y156.959 E2.80334
G1 X160.285 Y157.09 E2.85719
G1 X160.035 Y157.146 E2.88855
G1 X159.517 Y157.205 E2.95236
G1 X159.447 Y157.207 E2.96093
G1 X158.809 Y157.166 E3.03918
G1 F2100 E-2.96082
G1 F300 Z0.72
G0 F6000 X159.279 Y188.558 Z0.72
G1 F300 Z0.32
G1 F2100 E3.03918
G1 F1041.2 X158.836 Y188.539 E3.10173
G1 F1054.9 X158.594 Y188.472 E3.13669
G1 F1106 X158.352 Y188.404 E3.17007
G1 F1151.1 X158.286 Y188.371 E3.17949
G1 F1177.9 X158.029 Y188.269 E3.21396
G1 F1192.5 X157.772 Y188.167 E3.24802
G1 F1200 X157.327 Y187.924 E3.31008
G1 X156.893 Y187.593 E3.37688
G1 X156.655 Y187.39 E3.41517
G1 X156.317 Y187.023 E3.47624
G1 X156.14 Y186.755 E3.51555
G1 X155.998 Y186.533 E3.54781
G1 X155.971 Y186.482 E3.55487
G1 X155.751 Y185.991 E3.62072
G1 F1155.2 X155.635 Y185.726 E3.6575
G1 F1064.3 X155.504 Y185.339 E3.71388
G1 F1027.8 X155.484 Y185.047 E3.75571
G1 F1045.8 X155.463 Y184.755 E3.79683
G1 F1052.6 X155.47 Y184.5 E3.83242
G1 F1040.1 X155.498 Y184.194 E3.87581
G1 F1018 X155.527 Y183.887 E3.9203
G1 F1061.9 X155.683 Y183.47 E3.98188
G1 F1142.9 X155.716 Y183.416 E3.99002
G1 F1172.2 X155.836 Y183.154 E4.02612
G1 F1191.1 X155.957 Y182.892 E4.06171
G1 F1200 X156.084 Y182.674 E4.09259
G1 X156.273 Y182.388 E4.13455
G1 X156.309 Y182.341 E4.1418
G1 X156.651 Y181.96 E4.20446
G1 X156.921 Y181.72 E4.24868
G1 X157.258 Y181.47 E4.30004
G1 X157.733 Y181.202 E4.36679
G1 X158.23 Y181.009 E4.43205
G1 X158.297 Y180.99 E4.44057
G1 X158.902 Y180.874 E4.51597
G1 X158.961 Y180.867 E4.52324
G1 X159.463 Y180.846 E4.58474
G1 X159.528 Y180.848 E4.5927
G1 X160.1 Y180.916 E4.6632
G1 X160.469 Y181.019 E4.7101
G1 X160.763 Y181.117 E4.74803
G1 X161.23 Y181.335 E4.81111
G1 X161.605 Y181.587 E4.86641
G1 X161.803 Y181.731 E4.89637
G1 X162.252 Y182.172 E4.9734
G1 X162.282 Y182.209 E4.97923
G1 X162.634 Y182.702 E5.05338
G1 X162.899 Y183.23 E5.12569
G1 X163.046 Y183.67 E5.18247
G1 X163.06 Y183.723 E5.18918
G1 X163.153 Y184.223 E5.25143
G1 X163.174 Y184.494 E5.2847
G1 X163.172 Y184.972 E5.3432
G1 X163.166 Y185.038 E5.35131
G1 X163.074 Y185.57 E5.4174
G1 X162.976 Y185.891 E5.45847
G1 X162.863 Y186.208 E5.49967
G1 X162.71 Y186.505 E5.54056
G1 X162.584 Y186.735 E5.57266
G1 X162.373 Y187.022 E5.61626
G1 X162.008 Y187.424 E5.68272
G1 X161.726 Y187.683 E5.72958
G1 X161.68 Y187.718 E5.73666
G1 X161.181 Y188.043 E5.80954
G1 X160.855 Y188.198 E5.85373
G1 F1167.9 X160.539 Y188.336 E5.89709
G1 F1083.5 X160.15 Y188.492 E5.9539
G1 F1025.6 X160.078 Y188.514 E5.96469
G1 X159.828 Y188.536 E6.00063
G1 F1041.2 X159.577 Y188.559 E6.03618
G1 F1050.3 X159.279 Y188.558 E6.07785
G1 F2100 E0.07785
G1 F300 Z0.72
G0 F6000 X164.159 Y196.783 Z0.72
G1 F300 Z0.32
G1 F2100 E6.07785
G1 F974.6 X164.65 Y196.789 E6.15185
G1 X165.146 Y196.783 E6.22661
G1 X165.146 Y196.296 E6.3
G1 X165.147 Y193.114 E6.77953
G1 F973.6 X165.149 Y189.932 E7.25955
G1 F1048 X165.282 Y189.711 E7.2957
G1 F1167.9 X165.49 Y189.561 E7.32795
G1 F1200 X165.924 Y189.531 E7.3812
G1 X186.387 Y189.524 E9.88581
G1 X186.592 Y189.601 E9.91262
G1 F1176.5 X186.697 Y189.687 E9.92956
G1 F1051.5 X186.85 Y189.915 E9.96792
G1 F968.7 X186.856 Y190.44 E10.04752
G1 F971.7 X186.856 Y192.392 E10.34259
G1 F972.6 X186.856 Y194.344 E10.63735
G1 F973.6 X186.856 Y196.296 E10.93182
G1 X186.856 Y196.789 E11.00619
G1 X187.447 Y196.787 E11.09535
G1 X187.842 Y196.782 E11.15494
G1 X187.842 Y196.295 E11.22841
G1 X187.843 Y194.338 E11.52363
G1 F972.6 X187.844 Y192.381 E11.81915
G1 F971.7 X187.846 Y190.424 E12.11497
G1 F968.7 X187.844 Y189.92 E12.19139
G1 F1051.5 X187.999 Y189.693 E12.22979
G1 F1176.5 X188.23 Y189.547 E12.2639
G1 F1200 X188.667 Y189.531 E12.31743
G1 X188.831 Y189.531 E12.3375
G1 F1191.1 X189.103 Y189.525 E12.37105
G1 F1173.6 X189.375 Y189.518 E12.4051
G1 F1126.8 X189.695 Y189.491 E12.44696
G1 F1059.6 X190.017 Y189.463 E12.49177
G1 F1033.4 X190.149 Y189.467 E12.51054
G1 F1045.8 X190.701 Y189.472 E12.58807
G1 F1052.6 X190.788 Y189.471 E12.60021
G1 F1041.2 X191.147 Y189.461 E12.65087
G1 F1021.3 X191.506 Y189.451 E12.70252
G1 F1059.6 X191.963 Y189.493 E12.76613
G1 F1155.2 X192.357 Y189.524 E12.81638
G1 F1200 X192.894 Y189.523 E12.88211
G1 X193.464 Y189.454 E12.95238
G1 X193.789 Y189.367 E12.99356
G1 X194.082 Y189.229 E13.03321
G1 X194.327 Y189.088 E13.0678
G1 X194.612 Y188.877 E13.11121
G1 X194.908 Y188.572 E13.16323
G1 X195.148 Y188.227 E13.21467
G1 X195.289 Y187.932 E13.25469
G1 X195.382 Y187.665 E13.28929
G1 X195.466 Y187.313 E13.33359
G1 X195.5 Y186.789 E13.39786
G1 F1176.5 X195.484 Y186.4 E13.44646
G1 F1082.3 X195.429 Y185.909 E13.51351
G1 F1000 X195.411 Y185.754 E13.53643
G1 F996.9 X195.426 Y185.414 E13.58658
G1 F1028.9 X195.441 Y185.074 E13.63516
G1 F1049.2 X195.444 Y184.905 E13.65882
G1 F1051.5 X195.443 Y184.399 E13.7295
G1 F1040.1 X195.435 Y184.14 E13.76609
G1 F1021.3 X195.426 Y183.881 E13.80336
G1 F1024.5 X195.438 Y183.754 E13.82165
G1 F1075 X195.469 Y183.409 E13.86898
G1 F1155.2 X195.5 Y183.063 E13.91314
G1 F1200 X195.498 Y155.1 E17.33574
G1 F1148.3 X195.462 Y154.623 E17.39692
G1 F1059.6 X195.428 Y154.262 E17.44718
G1 F1033.4 X195.439 Y153.79 E17.51429
G1 F1051.5 X195.444 Y153.205 E17.59601
G1 F1052.6 X195.441 Y153.081 E17.61332
G1 F1039 X195.432 Y152.807 E17.65207
G1 F1019.1 X195.422 Y152.533 E17.69159
G1 F1052.6 X195.463 Y152.115 E17.75019
G1 F1148.3 X195.498 Y151.675 E17.80665
G1 F1200 X195.497 Y151.119 E17.8747
G1 X195.425 Y150.549 E17.94502
G1 X195.309 Y150.172 E17.9933
G1 X195.168 Y149.869 E18.03421
G1 X194.818 Y149.385 E18.10731
G1 X194.484 Y149.08 E18.16267
G1 X194.168 Y148.861 E18.20973
G1 X193.852 Y148.72 E18.25209
G1 X193.461 Y148.596 E18.30229
G1 X193.205 Y148.559 E18.33395
G1 X192.941 Y148.532 E18.36643
G1 X192.225 Y148.532 E18.45407
G1 F1159.4 X191.894 Y148.56 E18.49615
G1 F1086 X191.563 Y148.588 E18.54108
G1 F1052.6 X190.951 Y148.587 E18.62647
G1 F1051.5 X190.356 Y148.588 E18.70959
G1 F1045.8 X190.228 Y148.591 E18.72757
G1 F1026.7 X189.881 Y148.606 E18.77725
G1 F994.8 X189.534 Y148.621 E18.82853
G1 F1002.1 X189.348 Y148.599 E18.85599
G1 F1058.4 X189.091 Y148.57 E18.89187
G1 F1130.7 X188.834 Y148.541 E18.92547
G1 F1185.2 X188.677 Y148.532 E18.94496
G1 F1200 X187.696 Y148.531 E19.06503
G1 X160.91 Y148.531 E22.34356
G1 F1160.8 X160.571 Y148.558 E22.38659
G1 F1088.4 X160.231 Y148.585 E22.43262
G1 F1054.9 X159.627 Y148.586 E22.51671
G1 F1051.5 X159.042 Y148.588 E22.59843
G1 F1045.8 X158.922 Y148.591 E22.61529
G1 F1027.8 X158.581 Y148.604 E22.66405
G1 F999 X158.24 Y148.618 E22.71423
G1 F1007.3 X158.05 Y148.596 E22.74212
G1 F1063.1 X157.796 Y148.568 E22.77742
G1 F1134.8 X157.541 Y148.54 E22.81063
G1 F1186.7 X157.151 Y148.531 E22.85891
G1 F1200 X156.832 Y148.552 E22.89804
G1 X156.583 Y148.588 E22.92883
G1 X156.187 Y148.7 E22.97921
G1 X155.804 Y148.879 E23.03095
G1 X155.474 Y149.101 E23.07963
G1 X155.057 Y149.531 E23.15295
G1 X154.858 Y149.818 E23.19569
G1 X154.652 Y150.259 E23.25527
G1 X154.524 Y150.897 E23.33491
G1 X154.499 Y151.304 E23.38482
G1 X154.499 Y151.845 E23.45104
G1 F1175 X154.515 Y152.111 E23.48435
G1 F1128.1 X154.532 Y152.378 E23.51918
G1 F1067.9 X154.565 Y152.756 E23.57137
G1 F1037.8 X154.559 Y153.069 E23.61568
G1 F1050.3 X154.553 Y153.382 E23.65945
G1 F1049.2 X154.559 Y153.703 E23.7044
G1 F1035.6 X154.566 Y154.025 E23.75008
G1 F1065.5 X154.533 Y154.403 E23.80238
G1 F1149.7 X154.499 Y154.81 E23.85456
G1 F1200 X154.5 Y157.566 E24.19189
G1 X154.499 Y158.439 E24.29874
G1 X154.5 Y169.025 E25.59444
G1 X154.5 Y182.641 E27.261
G1 F1191.1 X154.506 Y182.906 E27.29369
G1 F1172.2 X154.513 Y183.171 E27.3269
G1 F1128.1 X154.538 Y183.435 E27.36143
G1 F1064.3 X154.563 Y183.701 E27.3983
G1 F1021.3 X154.576 Y183.827 E27.41652
G1 F1016.9 X154.567 Y184.118 E27.45857
G1 F1036.7 X154.558 Y184.409 E27.49981
G1 F1051.5 X154.553 Y184.715 E27.54256
G1 F1046.9 X154.561 Y185.055 E27.59028
G1 F1031.1 X154.569 Y185.395 E27.63872
G1 F1059.6 X154.537 Y185.82 E27.6978
G1 F1133.4 X154.51 Y186.127 E27.73774
G1 F1185.2 X154.5 Y186.258 E27.75402
G1 F1200 X154.5 Y186.908 E27.83358
G1 X154.547 Y187.376 E27.89115
G1 X154.678 Y187.864 E27.95299
G1 X154.902 Y188.299 E28.01288
G1 X155.055 Y188.511 E28.04488
G1 X155.238 Y188.72 E28.07888
G1 X155.53 Y188.987 E28.12731
G1 X155.78 Y189.164 E28.1648
G1 X156.232 Y189.373 E28.22575
G1 X156.729 Y189.485 E28.28811
G1 X157.16 Y189.526 E28.3411
G1 X157.523 Y189.529 E28.38553
G1 F1192.5 X157.8 Y189.524 E28.41965
G1 F1177.9 X158.077 Y189.519 E28.4542
G1 F1151.1 X158.249 Y189.506 E28.47621
G1 F1106 X158.499 Y189.485 E28.50953
G1 F1054.9 X158.75 Y189.463 E28.54461
G1 F1036.7 X159.003 Y189.467 E28.58045
G1 F1045.8 X159.256 Y189.471 E28.61599
G1 F1050.3 X159.63 Y189.471 E28.66829
G1 F1040.1 X159.908 Y189.462 E28.70757
G1 F1022.4 X160.186 Y189.453 E28.74753
G1 F1064.3 X160.675 Y189.499 E28.81531
G1 F1159.4 X161.05 Y189.526 E28.86294
G1 F1200 X162.919 Y189.526 E29.0917
G1 X163.673 Y189.534 E29.18399
G1 X163.86 Y189.582 E29.20762
G1 F1167.9 X164.028 Y189.713 E29.23442
G1 F1048 X164.161 Y189.934 E29.27056
G1 F973.6 X164.161 Y193.115 E29.75043
G1 F974.6 X164.16 Y196.296 E30.22982
G1 X164.159 Y196.783 E30.30321
G1 F2100 E24.30321
G1 F300 Z0.72
G0 F6000 X156.264 Y188.325 Z0.72
;TYPE:WALL-INNER
G1 F300 Z0.32
G1 F2100 E30.30321
G1 F845.8 X156.033 Y188.133 E30.35537
G1 F842.8 X155.805 Y187.898 E30.41243
G1 F849.6 X155.726 Y187.8 E30.43419
G1 F2100 E24.43419
G1 F300 Z0.72
G0 F6000 X190.106 Y188.538 Z0.72
;TYPE:WALL-OUTER
G1 F300 Z0.32
G1 F2100 E30.43419
G1 F1076.2 X189.644 Y188.407 E30.49973
G1 F1145.6 X189.581 Y188.376 E30.50873
G1 F1173.6 X189.328 Y188.275 E30.54282
G1 F1191.1 X189.075 Y188.173 E30.57646
G1 F1200 X188.839 Y188.048 E30.60915
G1 X188.479 Y187.821 E30.66124
G1 X188.206 Y187.617 E30.70295
G1 F1201.5 X187.961 Y187.4 E30.74296
G1 X187.624 Y187.031 E30.80405
G1 F1200 X187.585 Y186.98 E30.81191
G1 X187.289 Y186.521 E30.87876
G1 X187.072 Y186.035 E30.9439
G1 X186.973 Y185.74 E30.98199
G1 X186.868 Y185.302 E31.03712
G1 X186.858 Y185.229 E31.04614
G1 X186.826 Y184.535 E31.13117
G1 X186.865 Y184.082 E31.18682
G1 X186.952 Y183.696 E31.23525
G1 X187.027 Y183.432 E31.26884
G1 X187.05 Y183.371 E31.27682
G1 X187.338 Y182.761 E31.35939
G1 X187.617 Y182.341 E31.4211
G1 X187.657 Y182.292 E31.42884
G1 X188.081 Y181.838 E31.50488
G1 X188.318 Y181.64 E31.54268
G1 X188.579 Y181.458 E31.58162
G1 X189.051 Y181.198 E31.64758
G1 X189.536 Y181.008 E31.71134
G1 X189.605 Y180.989 E31.72009
G1 X190.228 Y180.871 E31.7977
G1 X190.74 Y180.845 E31.86045
G1 X190.801 Y180.847 E31.86792
G1 X191.354 Y180.907 E31.93601
G1 X191.806 Y181.027 E31.99325
G1 X192.093 Y181.129 E32.03053
G1 X192.134 Y181.147 E32.03601
G1 X192.587 Y181.37 E32.09781
G1 X192.641 Y181.402 E32.10549
G1 X193.078 Y181.71 E32.17093
G1 X193.134 Y181.757 E32.17988
G1 X193.58 Y182.216 E32.25821
G1 X193.885 Y182.621 E32.32027
G1 X193.92 Y182.677 E32.32835
G1 X194.176 Y183.177 E32.3971
G1 X194.205 Y183.248 E32.40649
G1 F1155.2 X194.331 Y183.57 E32.45045
G1 F1075 X194.457 Y183.893 E32.49782
G1 F1041.2 X194.526 Y184.342 E32.5619
G1 F1049.2 X194.533 Y184.915 E32.64212
G1 X194.529 Y184.996 E32.65348
G1 F1028.9 X194.485 Y185.332 E32.70185
G1 F996.9 X194.441 Y185.669 E32.75192
G1 F1020.2 X194.317 Y185.927 E32.79313
G1 F1106 X194.193 Y186.185 E32.83115
G1 F1176.5 X194.053 Y186.424 E32.86573
G1 F1200 X193.882 Y186.739 E32.9096
G1 X193.68 Y187.008 E32.95077
G1 X193.446 Y187.286 E32.99525
G1 X193.105 Y187.612 E33.05299
G1 X192.783 Y187.85 E33.102
G1 X192.548 Y188.009 E33.13673
G1 X192.113 Y188.215 E33.19564
G1 F1169.3 X191.853 Y188.338 E33.23177
G1 F1081.1 X191.462 Y188.491 E33.28881
G1 F1022.4 X191.388 Y188.511 E33.29982
G1 F1025.6 X191.066 Y188.535 E33.34606
G1 F1043.5 X190.743 Y188.56 E33.39166
G1 F1052.6 X190.675 Y188.561 E33.40115
G1 F1046.9 X190.39 Y188.55 E33.44117
G1 F1035.6 X190.105 Y188.538 E33.48162
G1 F2100 E27.48162
G1 F300 Z0.72
G0 F6000 X193.471 Y188.496 Z0.72
;TYPE:WALL-INNER
G1 F300 Z0.32
G1 F2100 E33.48162
G1 F885.6 X193.756 Y188.317 E33.53744
G1 F845.8 X193.968 Y188.141 E33.58529
G1 F837 X194.155 Y187.952 E33.63195
G1 F851.1 X194.319 Y187.745 E33.67752
G1 F2100 E27.67752
G1 F300 Z0.72
G0 F6000 X190.211 Y157.182 Z0.72
;TYPE:WALL-OUTER
G1 F300 Z0.32
G1 F2100 E33.67752
G1 F1200 X190.152 Y157.175 E33.68479
G1 X189.607 Y157.068 E33.75277
G1 X189.576 Y157.058 E33.75676
G1 X189.075 Y156.869 E33.8223
G1 X188.777 Y156.709 E33.8637
G1 X188.362 Y156.446 E33.92384
G1 X188.019 Y156.167 E33.97795
G1 X187.984 Y156.131 E33.9841
G1 X187.583 Y155.682 E34.05778
G1 X187.398 Y155.391 E34.09999
G1 X187.252 Y155.157 E34.13375
G1 X187.039 Y154.659 E34.20004
G1 X186.922 Y154.249 E34.25223
G1 X186.862 Y153.961 E34.28824
G1 X186.854 Y153.896 E34.29625
G1 X186.828 Y153.207 E34.38064
G1 X186.865 Y152.775 E34.43371
G1 X186.878 Y152.708 E34.44207
G1 X187.046 Y152.087 E34.52081
G1 X187.265 Y151.579 E34.58852
G1 X187.531 Y151.152 E34.65009
G1 X187.777 Y150.847 E34.69805
G1 X188.038 Y150.576 E34.7441
G1 X188.28 Y150.372 E34.78284
G1 X188.532 Y150.186 E34.82118
G1 X188.577 Y150.157 E34.82773
