;FLAVOR:Marlin
;TIME:2222
;Filament used: 1.46656m
;Layer height: 0.16
;MINX:99.82
;MINY:155.832
;MINZ:0.2
;MAXX:194.639
;MAXY:194.168
;MAXZ:12.04
;Generated with Cura_SteamEngine 5.0.0
M140 S60
M105
M190 S60
M104 S190
M105
M109 S190
M82 ;absolute extrusion mode
M201 X500.00 Y500.00 Z100.00 E5000.00 ;Setup machine max acceleration
M203 X500.00 Y500.00 Z10.00 E50.00 ;Setup machine max feedrate
M204 P500.00 R1000.00 T500.00 ;Setup Print/Retract/Travel acceleration
M205 X8.00 Y8.00 Z0.40 E5.00 ;Setup Jerk
M220 S100 ;Reset Feedrate
M221 S100 ;Reset Flowrate

G28 ;Home
M420 S1 Z2 ;Enable ABL using saved Mesh and Fade Height

G92 E0 ;Reset Extruder
G1 Z2.0 F3000 ;Move Z Axis up
G1 X10.1 Y20 Z0.28 F5000.0 ;Move to start position
G1 X10.1 Y200.0 Z0.28 F1500.0 E15 ;Draw the first line
G1 X10.4 Y200.0 Z0.28 F5000.0 ;Move to side a little
G1 X10.4 Y20 Z0.28 F1500.0 E30 ;Draw the second line
G92 E0 ;Reset Extruder
G1 Z2.0 F3000 ;Move Z Axis up

G92 E0
G92 E0
G1 F2700 E-5
;LAYER_COUNT:75
;LAYER:0
M107
G0 F6000 X105.223 Y156.995 Z0.2
G0 X99.912 Y169.484
;TYPE:SKIRT
G1 F2700 E0
G1 F1200 X99.952 Y168.698 E0.03959
G1 X100.071 Y167.92 E0.07918
G1 X100.269 Y167.158 E0.11879
G1 X100.543 Y166.42 E0.15839
G1 X100.89 Y165.714 E0.19797
G1 X101.308 Y165.046 E0.23761
G1 X101.555 Y164.728 E0.25786
G1 X101.555 Y163.583 E0.31546
G1 X101.595 Y162.797 E0.35506
G1 X101.714 Y162.019 E0.39465
G1 X101.912 Y161.257 E0.43426
G1 X102.186 Y160.519 E0.47386
G1 X102.534 Y159.813 E0.51345
G1 X102.951 Y159.145 E0.55307
G1 X103.434 Y158.524 E0.59265
G1 X103.978 Y157.954 E0.63228
G1 X104.576 Y157.443 E0.67185
G1 X105.223 Y156.995 E0.71144
G1 X105.913 Y156.615 E0.75107
G1 X106.637 Y156.307 E0.79065
G1 X107.389 Y156.074 E0.83025
G1 X108.16 Y155.918 E0.86983
G1 X109.3 Y155.833 E0.92733
G1 X110.94 Y155.832 E1.00984
G1 X111.726 Y155.871 E1.04942
G1 X112.505 Y155.991 E1.08907
G1 X113.267 Y156.188 E1.12867
G1 X114.005 Y156.462 E1.16827
G1 X114.711 Y156.809 E1.20784
G1 X115.379 Y157.226 E1.24746
G1 X116.001 Y157.708 E1.28704
G1 X116.57 Y158.251 E1.32661
G1 X117.082 Y158.849 E1.36621
G1 X117.391 Y159.294 E1.39347
G1 X121.538 Y159.294 E1.60209
G1 X121.631 Y159.145 E1.61092
G1 X122.114 Y158.524 E1.6505
G1 X122.658 Y157.954 E1.69014
G1 X123.256 Y157.443 E1.72971
G1 X123.903 Y156.995 E1.7693
G1 X124.593 Y156.615 E1.80892
G1 X125.317 Y156.307 E1.8485
G1 X126.069 Y156.074 E1.88811
G1 X126.84 Y155.918 E1.92768
G1 X127.98 Y155.833 E1.98519
G1 X129.62 Y155.832 E2.06769
G1 X130.406 Y155.871 E2.10728
G1 X131.185 Y155.991 E2.14693
G1 X131.947 Y156.188 E2.18652
G1 X132.685 Y156.462 E2.22612
G1 X133.391 Y156.809 E2.2657
G1 X134.059 Y157.226 E2.30531
G1 X134.681 Y157.708 E2.3449
G1 X135.25 Y158.251 E2.38447
G1 X135.762 Y158.849 E2.42407
G1 X136.211 Y159.496 E2.46369
G1 X136.591 Y160.185 E2.50327
G1 X136.9 Y160.909 E2.54287
G1 X137.133 Y161.661 E2.58247
G1 X137.289 Y162.433 E2.62209
G1 X137.375 Y163.582 E2.68006
G1 X137.375 Y164.715 E2.73705
G1 X137.856 Y165.401 E2.7792
G1 X138.236 Y166.091 E2.81883
G1 X138.544 Y166.815 E2.85841
G1 X138.777 Y167.567 E2.89801
G1 X138.933 Y168.338 E2.93758
G1 X139.018 Y169.484 E2.99539
G1 X139.016 Y182.995 E3.67508
G1 X138.982 Y183.689 E3.71003
G1 X139.018 Y183.868 E3.71922
G1 X139.104 Y185.018 E3.77723
G1 X139.104 Y186.061 E3.8297
G1 X139.064 Y186.847 E3.86929
G1 X138.945 Y187.625 E3.90888
G1 X138.747 Y188.387 E3.94849
G1 X138.361 Y189.372 E4.00171
G1 X138.258 Y189.59 E4.01384
G1 X137.807 Y190.412 E4.06101
G1 X137.72 Y190.55 E4.06921
G1 X137.267 Y191.194 E4.10882
G1 X136.751 Y191.788 E4.1484
G1 X136.177 Y192.327 E4.18802
G1 X135.552 Y192.805 E4.2276
G1 X134.881 Y193.217 E4.26721
G1 X134.172 Y193.559 E4.30681
G1 X133.432 Y193.828 E4.34642
G1 X132.669 Y194.02 E4.386
G1 X131.89 Y194.133 E4.4256
G1 X131.164 Y194.167 E4.46216
G1 X129.825 Y194.167 E4.52952
G1 X129.039 Y194.127 E4.56911
G1 X128.261 Y194.008 E4.6087
G1 X127.499 Y193.81 E4.64831
G1 X126.761 Y193.536 E4.68791
G1 X126.055 Y193.188 E4.72751
G1 X125.387 Y192.771 E4.76712
G1 X124.766 Y192.288 E4.8067
G1 X124.196 Y191.744 E4.84634
G1 X123.685 Y191.146 E4.88591
G1 X123.237 Y190.499 E4.9255
G1 X122.857 Y189.809 E4.96512
G1 X122.549 Y189.085 E5.0047
G1 X122.316 Y188.333 E5.04431
G1 X122.16 Y187.562 E5.08388
G1 X122.126 Y187.101 E5.10713
G1 X116.82 Y187.101 E5.37406
G1 X116.815 Y187.203 E5.37919
G1 X116.696 Y187.981 E5.41879
G1 X116.498 Y188.743 E5.45839
G1 X116.224 Y189.481 E5.49799
G1 X115.876 Y190.187 E5.53759
G1 X115.459 Y190.855 E5.57721
G1 X114.976 Y191.476 E5.61678
G1 X114.432 Y192.046 E5.65642
G1 X113.834 Y192.557 E5.69599
G1 X113.187 Y193.005 E5.73558
G1 X112.497 Y193.385 E5.77521
G1 X111.773 Y193.693 E5.81479
G1 X111.021 Y193.926 E5.85439
G1 X110.25 Y194.082 E5.89396
G1 X109.111 Y194.167 E5.95142
G1 X107.772 Y194.168 E6.01878
G1 X106.986 Y194.129 E6.05837
G1 X106.208 Y194.01 E6.09796
G1 X105.445 Y193.812 E6.13762
G1 X104.707 Y193.539 E6.1772
G1 X104.001 Y193.192 E6.21678
G1 X103.333 Y192.775 E6.25639
G1 X102.711 Y192.293 E6.29598
G1 X102.141 Y191.75 E6.33558
G1 X101.63 Y191.152 E6.37515
G1 X101.181 Y190.505 E6.41477
G1 X100.929 Y190.068 E6.44014
G1 X100.74 Y189.714 E6.46033
G1 X100.405 Y189.002 E6.49992
G1 X100.144 Y188.259 E6.53953
G1 X99.96 Y187.494 E6.57911
G1 X99.854 Y186.714 E6.61871
G1 X99.827 Y186.116 E6.64883
G1 X99.82 Y185.071 E6.7014
G1 X99.855 Y184.285 E6.74098
G1 X99.946 Y183.662 E6.77265
G1 X99.914 Y182.997 E6.80614
G1 X99.912 Y169.484 E7.48593
G0 F6000 X100.412 Y169.484
G1 F1200 X100.452 Y168.724 E7.52421
G1 X100.571 Y167.972 E7.56251
G1 X100.769 Y167.237 E7.60081
G1 X101.042 Y166.526 E7.63912
G1 X101.389 Y165.848 E7.67743
G1 X101.805 Y165.211 E7.71571
G1 X102.055 Y164.903 E7.73566
G1 X102.055 Y163.583 E7.80207
G1 X102.095 Y162.823 E7.84035
G1 X102.214 Y162.071 E7.87865
G1 X102.412 Y161.336 E7.91695
G1 X102.686 Y160.625 E7.95528
G1 X103.032 Y159.947 E7.99357
G1 X103.448 Y159.31 E8.03184
G1 X103.929 Y158.719 E8.07018
G1 X104.468 Y158.182 E8.10845
G1 X105.061 Y157.705 E8.14674
G1 X105.701 Y157.292 E8.18505
G1 X106.381 Y156.949 E8.22337
G1 X107.093 Y156.679 E8.26167
G1 X107.829 Y156.485 E8.29996
G1 X108.581 Y156.369 E8.33824
G1 X109.301 Y156.333 E8.37451
G1 X110.941 Y156.332 E8.45701
G1 X111.701 Y156.372 E8.49529
G1 X112.453 Y156.491 E8.53359
G1 X113.188 Y156.688 E8.57187
G1 X113.899 Y156.961 E8.61019
G1 X114.577 Y157.307 E8.64848
G1 X115.215 Y157.723 E8.6868
G1 X115.806 Y158.203 E8.7251
G1 X116.343 Y158.742 E8.76337
G1 X116.821 Y159.335 E8.80169
G1 X117.118 Y159.794 E8.82919
G1 X121.812 Y159.794 E9.06533
G1 X122.128 Y159.31 E9.09441
G1 X122.609 Y158.719 E9.13274
G1 X123.148 Y158.182 E9.17101
G1 X123.741 Y157.705 E9.2093
G1 X124.381 Y157.292 E9.24762
G1 X125.061 Y156.949 E9.28593
G1 X125.773 Y156.679 E9.32424
G1 X126.509 Y156.485 E9.36253
G1 X127.261 Y156.369 E9.4008
G1 X127.981 Y156.333 E9.43707
G1 X129.621 Y156.332 E9.51957
G1 X130.381 Y156.372 E9.55786
G1 X131.133 Y156.491 E9.59616
G1 X131.868 Y156.688 E9.63444
G1 X132.579 Y156.961 E9.67275
G1 X133.257 Y157.307 E9.71104
G1 X133.895 Y157.723 E9.74936
G1 X134.486 Y158.203 E9.78766
G1 X135.023 Y158.742 E9.82593
G1 X135.501 Y159.335 E9.86425
G1 X135.914 Y159.974 E9.90253
G1 X136.257 Y160.654 E9.94084
G1 X136.528 Y161.365 E9.97912
G1 X136.722 Y162.101 E10.01741
G1 X136.838 Y162.854 E10.05573
G1 X136.875 Y163.582 E10.0924
G1 X136.875 Y164.902 E10.15881
G1 X137.146 Y165.239 E10.18056
G1 X137.559 Y165.879 E10.21888
G1 X137.902 Y166.559 E10.25719
G1 X138.172 Y167.271 E10.2955
G1 X138.366 Y168.007 E10.33379
G1 X138.482 Y168.759 E10.37207
G1 X138.518 Y169.484 E10.40858
G1 X138.516 Y182.995 E11.08827
G1 X138.48 Y183.723 E11.12493
G1 X138.567 Y184.29 E11.15379
G1 X138.604 Y185.018 E11.19046
G1 X138.604 Y186.061 E11.24293
G1 X138.564 Y186.821 E11.28122
G1 X138.445 Y187.573 E11.31952
G1 X138.247 Y188.308 E11.35781
G1 X137.909 Y189.158 E11.40383
G1 X137.806 Y189.376 E11.41596
G1 X137.384 Y190.145 E11.46008
G1 X137.297 Y190.283 E11.46829
G1 X136.858 Y190.905 E11.50659
G1 X136.356 Y191.478 E11.54491
G1 X135.796 Y191.994 E11.58322
G1 X135.186 Y192.449 E11.6215
G1 X134.531 Y192.838 E11.65983
G1 X133.839 Y193.155 E11.69812
G1 X133.118 Y193.399 E11.73641
G1 X132.375 Y193.565 E11.77471
G1 X131.619 Y193.653 E11.81299
G1 X131.164 Y193.667 E11.83589
G1 X129.825 Y193.667 E11.90325
G1 X129.065 Y193.627 E11.94154
G1 X128.313 Y193.508 E11.97984
G1 X127.578 Y193.31 E12.01813
G1 X126.867 Y193.036 E12.05646
G1 X126.189 Y192.69 E12.09476
G1 X125.552 Y192.274 E12.13303
G1 X124.961 Y191.793 E12.17136
G1 X124.424 Y191.254 E12.20964
G1 X123.947 Y190.661 E12.24792
G1 X123.534 Y190.021 E12.28624
G1 X123.191 Y189.341 E12.32455
G1 X122.921 Y188.629 E12.36286
G1 X122.727 Y187.893 E12.40115
G1 X122.611 Y187.141 E12.43943
G1 X122.584 Y186.601 E12.46663
G1 X116.345 Y186.601 E12.78049
G1 X116.315 Y187.177 E12.8095
G1 X116.196 Y187.929 E12.8478
G1 X115.998 Y188.664 E12.8861
G1 X115.724 Y189.375 E12.92443
G1 X115.378 Y190.053 E12.96272
G1 X114.962 Y190.69 E13.00099
G1 X114.481 Y191.281 E13.03932
G1 X113.942 Y191.818 E13.0776
G1 X113.349 Y192.295 E13.11588
G1 X112.709 Y192.708 E13.1542
G1 X112.029 Y193.051 E13.19252
G1 X111.317 Y193.321 E13.23082
G1 X110.581 Y193.515 E13.26911
G1 X109.829 Y193.631 E13.30739
G1 X109.11 Y193.667 E13.34361
G1 X107.771 Y193.668 E13.41096
G1 X107.011 Y193.629 E13.44925
G1 X106.259 Y193.51 E13.48755
G1 X105.524 Y193.313 E13.52583
G1 X104.813 Y193.039 E13.56416
G1 X104.135 Y192.693 E13.60245
G1 X103.497 Y192.278 E13.64074
G1 X102.906 Y191.798 E13.67904
G1 X102.369 Y191.259 E13.71732
G1 X101.891 Y190.666 E13.75563
G1 X101.37 Y189.833 E13.80506
G1 X101.181 Y189.479 E13.82525
G1 X100.859 Y188.789 E13.86355
G1 X100.61 Y188.07 E13.90183
G1 X100.438 Y187.328 E13.94015
G1 X100.345 Y186.572 E13.97846
G1 X100.327 Y186.113 E14.00157
G1 X100.32 Y185.068 E14.05414
G1 X100.355 Y184.307 E14.09247
G1 X100.448 Y183.693 E14.12371
G1 X100.414 Y182.997 E14.15876
G1 X100.412 Y169.484 E14.83854
G0 F6000 X100.912 Y169.484
G1 F1200 X100.952 Y168.751 E14.87547
G1 X101.071 Y168.026 E14.91243
G1 X101.269 Y167.318 E14.94942
G1 X101.542 Y166.636 E14.98637
G1 X101.887 Y165.988 E15.0233
G1 X102.301 Y165.381 E15.06026
G1 X102.562 Y165.076 E15.08046
G1 X102.555 Y164.982 E15.0852
G1 X102.555 Y163.583 E15.15558
G1 X102.595 Y162.85 E15.19251
G1 X102.714 Y162.125 E15.22947
G1 X102.912 Y161.417 E15.26645
G1 X103.185 Y160.735 E15.30341
G1 X103.531 Y160.087 E15.34036
G1 X103.945 Y159.48 E15.37732
G1 X104.422 Y158.922 E15.41425
G1 X104.958 Y158.419 E15.45123
G1 X105.545 Y157.977 E15.48819
G1 X106.176 Y157.602 E15.52512
G1 X106.844 Y157.297 E15.56206
G1 X107.542 Y157.067 E15.59903
G1 X108.261 Y156.914 E15.63601
G1 X109.301 Y156.833 E15.68849
G1 X110.941 Y156.832 E15.77099
G1 X111.674 Y156.872 E15.80792
G1 X112.399 Y156.991 E15.84488
G1 X113.107 Y157.188 E15.88185
G1 X113.789 Y157.46 E15.91879
G1 X114.437 Y157.806 E15.95574
G1 X115.044 Y158.219 E15.99267
G1 X115.603 Y158.697 E16.02967
G1 X116.106 Y159.232 E16.06661
G1 X116.548 Y159.818 E16.10354
G1 X116.832 Y160.294 E16.13142
G1 X122.1 Y160.294 E16.39643
G1 X122.211 Y160.087 E16.40825
G1 X122.625 Y159.48 E16.44521
G1 X123.102 Y158.922 E16.48214
G1 X123.638 Y158.419 E16.51912
G1 X124.225 Y157.977 E16.55608
G1 X124.856 Y157.602 E16.59301
G1 X125.524 Y157.297 E16.62995
G1 X126.222 Y157.067 E16.66692
G1 X126.941 Y156.914 E16.7039
G1 X127.981 Y156.833 E16.75638
G1 X129.621 Y156.832 E16.83888
G1 X130.354 Y156.872 E16.87581
G1 X131.079 Y156.991 E16.91277
G1 X131.787 Y157.188 E16.94974
G1 X132.469 Y157.46 E16.98668
G1 X133.117 Y157.806 E17.02363
G1 X133.724 Y158.219 E17.06056
G1 X134.283 Y158.697 E17.09756
G1 X134.786 Y159.232 E17.1345
G1 X135.228 Y159.818 E17.17143
G1 X135.604 Y160.449 E17.20838
G1 X135.909 Y161.118 E17.24537
G1 X136.14 Y161.815 E17.28231
G1 X136.293 Y162.533 E17.31924
G1 X136.375 Y163.582 E17.37217
G1 X136.37 Y165.07 E17.44702
G1 X136.432 Y165.136 E17.45158
G1 X136.874 Y165.723 E17.48855
G1 X137.249 Y166.354 E17.52547
G1 X137.554 Y167.022 E17.56241
G1 X137.784 Y167.72 E17.59938
G1 X137.937 Y168.439 E17.63636
G1 X138.018 Y169.484 E17.68909
G1 X138.016 Y182.995 E18.36877
G1 X137.975 Y183.746 E18.40661
G1 X138.022 Y183.969 E18.41807
G1 X138.104 Y185.018 E18.47101
G1 X138.104 Y186.061 E18.52348
G1 X138.064 Y186.794 E18.5604
G1 X137.945 Y187.519 E18.59736
G1 X137.747 Y188.227 E18.63435
G1 X137.457 Y188.945 E18.6733
G1 X137.354 Y189.163 E18.68543
G1 X136.961 Y189.879 E18.72652
G1 X136.874 Y190.017 E18.73473
G1 X136.449 Y190.616 E18.77167
G1 X135.961 Y191.165 E18.80863
G1 X135.417 Y191.659 E18.84559
G1 X134.822 Y192.09 E18.88255
G1 X134.184 Y192.454 E18.9195
G1 X133.51 Y192.746 E18.95645
G1 X132.809 Y192.964 E18.99338
G1 X132.088 Y193.104 E19.03033
G1 X131.164 Y193.167 E19.07692
G1 X129.825 Y193.167 E19.14428
G1 X129.092 Y193.127 E19.18121
G1 X128.367 Y193.008 E19.21817
G1 X127.659 Y192.81 E19.25516
G1 X126.977 Y192.537 E19.29211
G1 X126.329 Y192.191 E19.32906
G1 X125.722 Y191.777 E19.36603
G1 X125.164 Y191.3 E19.40296
G1 X124.661 Y190.764 E19.43993
G1 X124.219 Y190.177 E19.4769
G1 X123.844 Y189.546 E19.51382
G1 X123.539 Y188.878 E19.55077
G1 X123.309 Y188.18 E19.58774
G1 X123.156 Y187.461 E19.62472
G1 X123.075 Y186.417 E19.67739
G1 X123.075 Y186.101 E19.69329
G1 X115.855 Y186.101 E20.0565
G1 X115.855 Y186.417 E20.0724
G1 X115.815 Y187.15 E20.10932
G1 X115.696 Y187.875 E20.14628
G1 X115.498 Y188.583 E20.18327
G1 X115.225 Y189.265 E20.22022
G1 X114.879 Y189.913 E20.25718
G1 X114.465 Y190.52 E20.29414
G1 X113.988 Y191.078 E20.33107
G1 X113.452 Y191.581 E20.36805
G1 X112.865 Y192.023 E20.40501
G1 X112.234 Y192.398 E20.44194
G1 X111.566 Y192.703 E20.47888
G1 X110.868 Y192.933 E20.51585
G1 X110.149 Y193.086 E20.55283
G1 X109.11 Y193.167 E20.60525
G1 X107.771 Y193.168 E20.67261
G1 X107.038 Y193.129 E20.70954
G1 X106.313 Y193.01 E20.7465
G1 X105.605 Y192.813 E20.78347
G1 X104.923 Y192.54 E20.82043
G1 X104.274 Y192.195 E20.8574
G1 X103.667 Y191.781 E20.89436
G1 X103.109 Y191.304 E20.93129
G1 X102.606 Y190.769 E20.96823
G1 X102.163 Y190.183 E21.00519
G1 X101.812 Y189.597 E21.03955
G1 X101.623 Y189.243 E21.05974
G1 X101.312 Y188.577 E21.09671
G1 X101.076 Y187.882 E21.13364
G1 X100.917 Y187.164 E21.17063
G1 X100.827 Y186.109 E21.2239
G1 X100.82 Y185.064 E21.27647
G1 X100.855 Y184.33 E21.31344
G1 X100.952 Y183.718 E21.34461
G1 X100.914 Y182.997 E21.38093
G1 X100.912 Y169.484 E22.06071
G0 F6000 X101.412 Y169.484
G1 F1200 X101.452 Y168.778 E22.09629
G1 X101.571 Y168.082 E22.13181
G1 X101.768 Y167.403 E22.16737
G1 X102.041 Y166.751 E22.20293
G1 X102.385 Y166.133 E22.23851
G1 X102.797 Y165.559 E22.27406
G1 X103.069 Y165.259 E22.29443
G1 X103.055 Y164.982 E22.30838
G1 X103.055 Y163.583 E22.37876
G1 X103.095 Y162.877 E22.41433
G1 X103.214 Y162.181 E22.44985
G1 X103.412 Y161.502 E22.48543
G1 X103.684 Y160.85 E22.52097
G1 X104.029 Y160.233 E22.55653
G1 X104.441 Y159.658 E22.59212
G1 X104.915 Y159.134 E22.62766
G1 X105.446 Y158.667 E22.66324
G1 X106.025 Y158.263 E22.69875
G1 X106.647 Y157.926 E22.73434
G1 X107.303 Y157.662 E22.76991
G1 X107.984 Y157.474 E22.80545
G1 X108.682 Y157.364 E22.841
G1 X109.301 Y157.333 E22.87218
G1 X110.941 Y157.332 E22.95468
G1 X111.647 Y157.372 E22.99025
G1 X112.344 Y157.491 E23.02582
G1 X113.022 Y157.687 E23.06133
G1 X113.675 Y157.96 E23.09693
G1 X114.292 Y158.304 E23.13247
G1 X114.867 Y158.716 E23.16806
G1 X115.391 Y159.189 E23.20357
G1 X115.859 Y159.72 E23.23917
G1 X116.263 Y160.299 E23.27469
G1 X116.531 Y160.794 E23.30301
G1 X122.395 Y160.794 E23.598
G1 X122.709 Y160.233 E23.63034
G1 X123.121 Y159.658 E23.66593
G1 X123.595 Y159.134 E23.70147
G1 X124.126 Y158.667 E23.73705
G1 X124.705 Y158.263 E23.77256
G1 X125.327 Y157.926 E23.80815
G1 X125.983 Y157.662 E23.84372
G1 X126.664 Y157.474 E23.87926
G1 X127.362 Y157.364 E23.91481
G1 X127.981 Y157.333 E23.94599
G1 X129.621 Y157.332 E24.02849
G1 X130.327 Y157.372 E24.06406
G1 X131.024 Y157.491 E24.09963
G1 X131.702 Y157.687 E24.13514
G1 X132.355 Y157.96 E24.17074
G1 X132.972 Y158.304 E24.20628
G1 X133.547 Y158.716 E24.24187
G1 X134.071 Y159.189 E24.27738
G1 X134.539 Y159.72 E24.31298
G1 X134.943 Y160.299 E24.3485
G1 X135.28 Y160.921 E24.38409
