;FLAVOR:Marlin
;TIME:1874
;Filament used: 1.12059m
;Layer height: 0.16
;MINX:142.2
;MINY:142.2
;MINZ:0.16
;MAXX:207.8
;MAXY:207.8
;MAXZ:0.96
;Generated with Cura_SteamEngine 5.0.0
M140 S75
M105
M190 S75
M104 S230
M105
M109 S230
M82 ;absolute extrusion mode
M220 S100 ;Reset Feedrate
M221 S100 ;Reset Flowrate

G28 ;Home
G29 A
G29 L0

G92 E0 ;Reset Extruder
G1 Z2.0 F3000 ;Move Z Axis up
G1 X10.1 Y20 Z0.28 F5000.0 ;Move to start position
G1 X10.1 Y200.0 Z0.28 F1500.0 E15 ;Draw the first line
G1 X10.4 Y200.0 Z0.28 F5000.0 ;Move to side a little
G1 X10.4 Y20 Z0.28 F1500.0 E30 ;Draw the second line
G92 E0 ;Reset Extruder
G1 Z2.0 F3000 ;Move Z Axis up
G92 E0
G92 E0
G1 F2100 E-6
;LAYER_COUNT:6
;LAYER:0
M107
M204 S500
G0 F6000 X144.623 Y144.349 Z0.16
G0 X142.2 Y150
M204 S100
;TYPE:SKIRT
G1 F2100 E0
G1 F900 X142.24 Y149.211 E0.02102
G1 X142.359 Y148.431 E0.04202
G1 X142.557 Y147.666 E0.06304
G1 X142.831 Y146.926 E0.08404
G1 X143.179 Y146.217 E0.10505
G1 X143.597 Y145.546 E0.12609
G1 X144.08 Y144.922 E0.14708
G1 X144.623 Y144.349 E0.16809
G1 X145.222 Y143.834 E0.18911
G1 X145.87 Y143.383 E0.21011
G1 X146.561 Y142.999 E0.23115
G1 X147.286 Y142.687 E0.25215
G1 X148.039 Y142.45 E0.27316
G1 X148.813 Y142.291 E0.29418
G1 X149.598 Y142.21 E0.31518
G1 X150 Y142.2 E0.32588
G1 X200 Y142.2 E1.65628
G1 X200.789 Y142.24 E1.6773
G1 X201.569 Y142.359 E1.6983
G1 X202.334 Y142.557 E1.71932
G1 X203.074 Y142.831 E1.74032
G1 X203.783 Y143.179 E1.76134
G1 X204.454 Y143.597 E1.78237
G1 X205.078 Y144.08 E1.80337
G1 X205.651 Y144.623 E1.82437
G1 X206.166 Y145.222 E1.84539
G1 X206.617 Y145.87 E1.8664
G1 X207.001 Y146.561 E1.88743
G1 X207.313 Y147.286 E1.90843
G1 X207.55 Y148.039 E1.92944
G1 X207.709 Y148.813 E1.95046
G1 X207.79 Y149.598 E1.97146
G1 X207.8 Y150 E1.98216
G1 X207.8 Y200 E3.31257
G1 X207.76 Y200.789 E3.33359
G1 X207.641 Y201.569 E3.35458
G1 X207.443 Y202.334 E3.37561
G1 X207.169 Y203.074 E3.39661
G1 X206.821 Y203.783 E3.41762
G1 X206.403 Y204.454 E3.43866
G1 X205.92 Y205.078 E3.45965
G1 X205.377 Y205.651 E3.48066
G1 X204.778 Y206.166 E3.50168
G1 X204.13 Y206.617 E3.52268
G1 X203.439 Y207.001 E3.54372
G1 X202.714 Y207.313 E3.56472
G1 X201.961 Y207.55 E3.58572
G1 X201.187 Y207.709 E3.60675
G1 X200.402 Y207.79 E3.62775
G1 X200 Y207.8 E3.63845
G1 X150 Y207.8 E4.96885
G1 X149.211 Y207.76 E4.98987
G1 X148.431 Y207.641 E5.01087
G1 X147.666 Y207.443 E5.03189
G1 X146.926 Y207.169 E5.05289
G1 X146.217 Y206.821 E5.0739
G1 X145.546 Y206.403 E5.09494
G1 X144.922 Y205.92 E5.11594
G1 X144.349 Y205.377 E5.13694
G1 X143.834 Y204.778 E5.15796
G1 X143.383 Y204.13 E5.17897
G1 X142.999 Y203.439 E5.2
G1 X142.687 Y202.714 E5.221
G1 X142.45 Y201.961 E5.24201
G1 X142.291 Y201.187 E5.26303
G1 X142.21 Y200.402 E5.28403
G1 X142.2 Y200 E5.29473
G1 X142.2 Y150 E6.62514
M204 S500
G0 F6000 X142.6 Y150
M204 S100
G1 F900 X142.64 Y149.232 E6.6456
G1 X142.759 Y148.472 E6.66607
G1 X142.957 Y147.729 E6.68653
G1 X143.231 Y147.01 E6.707
G1 X143.578 Y146.324 E6.72746
G1 X143.994 Y145.677 E6.74792
G1 X144.475 Y145.077 E6.76838
G1 X145.016 Y144.53 E6.78885
G1 X145.611 Y144.042 E6.80933
G1 X146.253 Y143.619 E6.82979
G1 X146.936 Y143.264 E6.85027
G1 X147.651 Y142.983 E6.87071
G1 X148.393 Y142.777 E6.8912
G1 X149.151 Y142.649 E6.91165
G1 X150 Y142.6 E6.93428
G1 X200 Y142.6 E8.26469
G1 X200.768 Y142.64 E8.28515
G1 X201.528 Y142.759 E8.30562
G1 X202.271 Y142.957 E8.32608
G1 X202.99 Y143.231 E8.34655
G1 X203.676 Y143.578 E8.36701
G1 X204.323 Y143.994 E8.38747
G1 X204.923 Y144.475 E8.40794
G1 X205.47 Y145.016 E8.42841
G1 X205.958 Y145.611 E8.44888
G1 X206.381 Y146.253 E8.46934
G1 X206.736 Y146.936 E8.48982
G1 X207.017 Y147.651 E8.51026
G1 X207.223 Y148.393 E8.53075
G1 X207.351 Y149.151 E8.55121
G1 X207.4 Y150 E8.57383
G1 X207.4 Y200 E9.90424
G1 X207.36 Y200.768 E9.9247
G1 X207.241 Y201.528 E9.94517
G1 X207.043 Y202.271 E9.96563
G1 X206.769 Y202.99 E9.9861
G1 X206.422 Y203.676 E10.00656
G1 X206.006 Y204.323 E10.02703
G1 X205.525 Y204.923 E10.04749
G1 X204.984 Y205.47 E10.06796
G1 X204.389 Y205.958 E10.08843
G1 X203.747 Y206.381 E10.10889
G1 X203.064 Y206.736 E10.12937
G1 X202.349 Y207.017 E10.14981
G1 X201.607 Y207.223 E10.1703
G1 X200.849 Y207.351 E10.19076
G1 X200 Y207.4 E10.21339
G1 X150 Y207.4 E11.54379
G1 X149.232 Y207.36 E11.56426
G1 X148.472 Y207.241 E11.58472
G1 X147.729 Y207.043 E11.60518
G1 X147.01 Y206.769 E11.62566
G1 X146.324 Y206.422 E11.64611
G1 X145.677 Y206.006 E11.66658
G1 X145.077 Y205.525 E11.68704
G1 X144.53 Y204.984 E11.70751
G1 X144.042 Y204.389 E11.72799
G1 X143.619 Y203.747 E11.74844
G1 X143.264 Y203.064 E11.76893
G1 X142.983 Y202.349 E11.78937
G1 X142.777 Y201.607 E11.80986
G1 X142.649 Y200.849 E11.83031
G1 X142.6 Y200 E11.85294
G1 X142.6 Y150 E13.18334
M204 S500
G0 F6000 X143 Y150
M204 S100
G1 F900 X143.04 Y149.253 E13.20325
G1 X143.159 Y148.515 E13.22314
G1 X143.357 Y147.793 E13.24306
G1 X143.63 Y147.097 E13.26295
G1 X143.977 Y146.434 E13.28286
G1 X144.392 Y145.811 E13.30278
G1 X144.871 Y145.237 E13.32267
G1 X145.408 Y144.716 E13.34258
G1 X145.998 Y144.257 E13.36247
G1 X146.634 Y143.862 E13.38239
G1 X147.308 Y143.538 E13.40229
G1 X148.013 Y143.288 E13.4222
G1 X148.741 Y143.114 E13.44211
G1 X149.483 Y143.019 E13.46202
G1 X150 Y143 E13.47578
G1 X200 Y143 E14.80619
G1 X200.747 Y143.04 E14.82609
G1 X201.485 Y143.159 E14.84598
G1 X202.207 Y143.357 E14.8659
G1 X202.903 Y143.63 E14.8858
G1 X203.566 Y143.977 E14.90571
G1 X204.189 Y144.392 E14.92563
G1 X204.763 Y144.871 E14.94552
G1 X205.284 Y145.408 E14.96543
G1 X205.743 Y145.998 E14.98532
G1 X206.138 Y146.634 E15.00524
G1 X206.462 Y147.308 E15.02514
G1 X206.712 Y148.013 E15.04504
G1 X206.886 Y148.741 E15.06495
G1 X206.981 Y149.483 E15.08486
G1 X207 Y150 E15.09862
G1 X207 Y200 E16.42903
G1 X206.96 Y200.747 E16.44894
G1 X206.841 Y201.485 E16.46883
G1 X206.643 Y202.207 E16.48875
G1 X206.37 Y202.903 E16.50864
G1 X206.023 Y203.566 E16.52855
G1 X205.608 Y204.189 E16.54847
G1 X205.129 Y204.763 E16.56836
G1 X204.592 Y205.284 E16.58827
G1 X204.002 Y205.743 E16.60816
G1 X203.366 Y206.138 E16.62808
G1 X202.692 Y206.462 E16.64798
G1 X201.987 Y206.712 E16.66788
G1 X201.259 Y206.886 E16.6878
G1 X200.517 Y206.981 E16.7077
G1 X200 Y207 E16.72147
G1 X150 Y207 E18.05187
G1 X149.253 Y206.96 E18.07178
G1 X148.515 Y206.841 E18.09167
G1 X147.793 Y206.643 E18.11159
G1 X147.097 Y206.37 E18.13148
G1 X146.434 Y206.023 E18.15139
G1 X145.811 Y205.608 E18.17131
G1 X145.237 Y205.129 E18.1912
G1 X144.716 Y204.592 E18.21111
G1 X144.257 Y204.002 E18.231
G1 X143.862 Y203.366 E18.25092
G1 X143.538 Y202.692 E18.27082
G1 X143.288 Y201.987 E18.29072
G1 X143.114 Y201.259 E18.31064
G1 X143.019 Y200.517 E18.33054
G1 X143 Y200 E18.34431
G1 X143 Y150 E19.67472
M204 S500
G0 F6000 X143.4 Y150
M204 S100
G1 F900 X143.44 Y149.275 E19.69404
G1 X143.559 Y148.558 E19.71338
G1 X143.757 Y147.859 E19.73271
G1 X144.03 Y147.186 E19.75203
G1 X144.375 Y146.547 E19.77135
G1 X144.789 Y145.95 E19.79068
G1 X145.265 Y145.402 E19.81
G1 X145.799 Y144.909 E19.82934
G1 X146.384 Y144.479 E19.84865
G1 X147.013 Y144.115 E19.86799
G1 X147.678 Y143.822 E19.88733
G1 X148.371 Y143.604 E19.90666
G1 X149.083 Y143.464 E19.92596
G1 X150 Y143.4 E19.95042
G1 X200 Y143.4 E21.28083
G1 X200.725 Y143.44 E21.30015
G1 X201.442 Y143.559 E21.31949
G1 X202.141 Y143.757 E21.33882
G1 X202.814 Y144.03 E21.35814
G1 X203.453 Y144.375 E21.37747
G1 X204.05 Y144.789 E21.3968
G1 X204.598 Y145.265 E21.41611
G1 X205.091 Y145.799 E21.43545
G1 X205.521 Y146.384 E21.45477
G1 X205.885 Y147.013 E21.4741
G1 X206.178 Y147.678 E21.49344
G1 X206.396 Y148.371 E21.51277
G1 X206.536 Y149.083 E21.53208
G1 X206.6 Y150 E21.55654
G1 X206.6 Y200 E22.88694
G1 X206.56 Y200.725 E22.90626
G1 X206.441 Y201.442 E22.9256
G1 X206.243 Y202.141 E22.94493
G1 X205.97 Y202.814 E22.96426
G1 X205.625 Y203.453 E22.98358
G1 X205.211 Y204.05 E23.00291
G1 X204.735 Y204.598 E23.02222
G1 X204.201 Y205.091 E23.04156
G1 X203.616 Y205.521 E23.06088
G1 X202.987 Y205.885 E23.08022
G1 X202.322 Y206.178 E23.09955
G1 X201.629 Y206.396 E23.11888
G1 X200.917 Y206.536 E23.13819
G1 X200 Y206.6 E23.16265
G1 X150 Y206.6 E24.49306
G1 X149.275 Y206.56 E24.51238
G1 X148.558 Y206.441 E24.53171
G1 X147.859 Y206.243 E24.55105
G1 X147.186 Y205.97 E24.57037
G1 X146.547 Y205.625 E24.58969
G1 X145.95 Y205.211 E24.60902
G1 X145.402 Y204.735 E24.62834
G1 X144.909 Y204.201 E24.64768
G1 X144.479 Y203.616 E24.66699
G1 X144.115 Y202.987 E24.68633
G1 X143.822 Y202.322 E24.70567
G1 X143.604 Y201.629 E24.725
G1 X143.464 Y200.917 E24.7443
G1 X143.4 Y200 E24.76876
G1 X143.4 Y150 E26.09917
M204 S500
G0 F6000 X143.8 Y150
M204 S100
G1 F900 X143.84 Y149.297 E26.1179
G1 X143.959 Y148.603 E26.13664
G1 X144.157 Y147.928 E26.15536
G1 X144.429 Y147.279 E26.17408
G1 X144.774 Y146.665 E26.19282
G1 X145.185 Y146.094 E26.21154
G1 X145.659 Y145.573 E26.23028
G1 X146.189 Y145.109 E26.24903
G1 X146.768 Y144.709 E26.26775
G1 X147.389 Y144.377 E26.28649
G1 X148.043 Y144.117 E26.30521
G1 X148.723 Y143.933 E26.32396
G1 X149.419 Y143.827 E26.34269
G1 X150 Y143.8 E26.35817
G1 X200 Y143.8 E27.68857
G1 X200.703 Y143.84 E27.70731
G1 X201.397 Y143.959 E27.72604
G1 X202.072 Y144.157 E27.74476
G1 X202.721 Y144.429 E27.76348
G1 X203.335 Y144.774 E27.78222
G1 X203.906 Y145.185 E27.80094
G1 X204.427 Y145.659 E27.81969
G1 X204.891 Y146.189 E27.83843
G1 X205.291 Y146.768 E27.85715
G1 X205.623 Y147.389 E27.87589
G1 X205.883 Y148.043 E27.89462
G1 X206.067 Y148.723 E27.91336
G1 X206.173 Y149.419 E27.93209
G1 X206.2 Y150 E27.94757
G1 X206.2 Y200 E29.27798
G1 X206.16 Y200.703 E29.29671
G1 X206.041 Y201.397 E29.31545
G1 X205.843 Y202.072 E29.33416
G1 X205.571 Y202.721 E29.35289
G1 X205.226 Y203.335 E29.37163
G1 X204.815 Y203.906 E29.39035
G1 X204.341 Y204.427 E29.40909
G1 X203.811 Y204.891 E29.42783
G1 X203.232 Y205.291 E29.44656
G1 X202.611 Y205.623 E29.46529
G1 X201.957 Y205.883 E29.48402
G1 X201.277 Y206.067 E29.50276
G1 X200.581 Y206.173 E29.5215
G1 X200 Y206.2 E29.53697
G1 X150 Y206.2 E30.86738
G1 X149.297 Y206.16 E30.88611
G1 X148.603 Y206.041 E30.90485
G1 X147.928 Y205.843 E30.92357
G1 X147.279 Y205.571 E30.94229
G1 X146.665 Y205.226 E30.96103
G1 X146.094 Y204.815 E30.97975
G1 X145.573 Y204.341 E30.99849
G1 X145.109 Y203.811 E31.01724
G1 X144.709 Y203.232 E31.03596
G1 X144.377 Y202.611 E31.0547
G1 X144.117 Y201.957 E31.07342
G1 X143.933 Y201.277 E31.09217
G1 X143.827 Y200.581 E31.1109
G1 X143.8 Y200 E31.12638
G1 X143.8 Y150 E32.45678
M204 S500
G0 F6000 X144.2 Y150
M204 S100
G1 F900 X144.24 Y149.32 E32.47491
G1 X144.359 Y148.65 E32.49301
G1 X144.556 Y147.998 E32.51114
G1 X144.828 Y147.374 E32.52925
G1 X145.172 Y146.786 E32.54738
G1 X145.582 Y146.242 E32.5655
G1 X146.053 Y145.751 E32.5836
G1 X146.578 Y145.317 E32.60173
G1 X147.15 Y144.948 E32.61984
G1 X147.762 Y144.649 E32.63796
G1 X148.404 Y144.424 E32.65607
G1 X149.069 Y144.275 E32.6742
G1 X150 Y144.2 E32.69905
G1 X200 Y144.2 E34.02946
G1 X200.68 Y144.24 E34.04758
G1 X201.35 Y144.359 E34.06569
G1 X202.002 Y144.556 E34.08381
G1 X202.626 Y144.828 E34.10192
G1 X203.214 Y145.172 E34.12005
G1 X203.758 Y145.582 E34.13817
G1 X204.249 Y146.053 E34.15628
G1 X204.683 Y146.578 E34.1744
G1 X205.052 Y147.15 E34.19252
G1 X205.351 Y147.762 E34.21064
G1 X205.576 Y148.404 E34.22874
G1 X205.725 Y149.069 E34.24687
G1 X205.8 Y150 E34.27173
G1 X205.8 Y200 E35.60213
G1 X205.76 Y200.68 E35.62026
G1 X205.641 Y201.35 E35.63836
G1 X205.444 Y202.002 E35.65649
G1 X205.172 Y202.626 E35.6746
G1 X204.828 Y203.214 E35.69272
G1 X204.418 Y203.758 E35.71085
G1 X203.947 Y204.249 E35.72895
G1 X203.422 Y204.683 E35.74708
G1 X202.85 Y205.052 E35.76519
G1 X202.238 Y205.351 E35.78331
G1 X201.596 Y205.576 E35.80141
G1 X200.931 Y205.725 E35.81955
G1 X200 Y205.8 E35.8444
G1 X150 Y205.8 E37.17481
G1 X149.32 Y205.76 E37.19293
G1 X148.65 Y205.641 E37.21104
G1 X147.998 Y205.444 E37.22916
G1 X147.374 Y205.172 E37.24727
G1 X146.786 Y204.828 E37.2654
G1 X146.242 Y204.418 E37.28352
G1 X145.751 Y203.947 E37.30163
G1 X145.317 Y203.422 E37.31975
G1 X144.948 Y202.85 E37.33786
G1 X144.649 Y202.238 E37.35599
G1 X144.424 Y201.596 E37.37409
G1 X144.275 Y200.931 E37.39222
G1 X144.2 Y200 E37.41707
G1 X144.2 Y150 E38.74748
M204 S500
G0 F6000 X144.6 Y150
M204 S100
G1 F900 X144.64 Y149.344 E38.76497
G1 X144.759 Y148.698 E38.78244
G1 X144.956 Y148.071 E38.79993
G1 X145.228 Y147.473 E38.81741
G1 X145.57 Y146.912 E38.83489
G1 X145.978 Y146.397 E38.85238
G1 X146.445 Y145.935 E38.86986
G1 X146.965 Y145.534 E38.88733
G1 X147.529 Y145.198 E38.9048
G1 X148.131 Y144.934 E38.92229
G1 X148.76 Y144.744 E38.93977
G1 X149.407 Y144.633 E38.95724
G1 X150 Y144.6 E38.97304
G1 X200 Y144.6 E40.30345
G1 X200.656 Y144.64 E40.32093
G1 X201.302 Y144.759 E40.33841
G1 X201.929 Y144.956 E40.3559
G1 X202.527 Y145.228 E40.37338
G1 X203.088 Y145.57 E40.39086
G1 X203.603 Y145.978 E40.40834
G1 X204.065 Y146.445 E40.42582
G1 X204.466 Y146.965 E40.4433
G1 X204.802 Y147.529 E40.46076
G1 X205.066 Y148.131 E40.47825
G1 X205.256 Y148.76 E40.49574
G1 X205.367 Y149.407 E40.5132
G1 X205.4 Y150 E40.52901
G1 X205.4 Y200 E41.85941
G1 X205.36 Y200.656 E41.8769
G1 X205.241 Y201.302 E41.89438
G1 X205.044 Y201.929 E41.91187
G1 X204.772 Y202.527 E41.92935
G1 X204.43 Y203.088 E41.94683
G1 X204.022 Y203.603 E41.96431
G1 X203.555 Y204.065 E41.98179
G1 X203.035 Y204.466 E41.99926
G1 X202.471 Y204.802 E42.01673
G1 X201.869 Y205.066 E42.03422
G1 X201.24 Y205.256 E42.0517
G1 X200.593 Y205.367 E42.06917
G1 X200 Y205.4 E42.08497
G1 X150 Y205.4 E43.41538
G1 X149.344 Y205.36 E43.43287
G1 X148.698 Y205.241 E43.45035
G1 X148.071 Y205.044 E43.46783
G1 X147.473 Y204.772 E43.48531
G1 X146.912 Y204.43 E43.5028
G1 X146.397 Y204.022 E43.52028
G1 X145.935 Y203.555 E43.53776
G1 X145.534 Y203.035 E43.55523
G1 X145.198 Y202.471 E43.5727
G1 X144.934 Y201.869 E43.59019
G1 X144.744 Y201.24 E43.60767
G1 X144.633 Y200.593 E43.62514
G1 X144.6 Y200 E43.64094
G1 X144.6 Y150 E44.97135
M204 S500
G0 F6000 X145 Y150
M204 S100
G1 F900 X145.04 Y149.369 E44.98817
G1 X145.159 Y148.748 E45.00499
G1 X145.356 Y148.148 E45.0218
G1 X145.627 Y147.576 E45.03864
G1 X145.967 Y147.044 E45.05544
G1 X146.373 Y146.559 E45.07227
G1 X146.836 Y146.129 E45.08908
G1 X147.35 Y145.76 E45.10592
G1 X147.906 Y145.46 E45.12273
G1 X148.495 Y145.232 E45.13953
G1 X149.109 Y145.08 E45.15636
G1 X150 Y145 E45.18017
G1 X200 Y145 E46.51057
G1 X200.631 Y145.04 E46.5274
G1 X201.252 Y145.159 E46.54422
G1 X201.852 Y145.356 E46.56102
G1 X202.424 Y145.627 E46.57787
G1 X202.956 Y145.967 E46.59467
G1 X203.441 Y146.373 E46.61149
G1 X203.871 Y146.836 E46.62831
G1 X204.24 Y147.35 E46.64514
G1 X204.54 Y147.906 E46.66195
G1 X204.768 Y148.495 E46.67876
G1 X204.92 Y149.109 E46.69559
G1 X205 Y150 E46.71939
G1 X205 Y200 E48.0498
G1 X204.96 Y200.631 E48.06662
G1 X204.841 Y201.252 E48.08345
G1 X204.644 Y201.852 E48.10025
G1 X204.373 Y202.424 E48.11709
G1 X204.033 Y202.956 E48.13389
G1 X203.627 Y203.441 E48.15072
G1 X203.164 Y203.871 E48.16753
G1 X202.65 Y204.24 E48.18437
G1 X202.094 Y204.54 E48.20118
G1 X201.505 Y204.768 E48.21799
G1 X200.891 Y204.92 E48.23482
G1 X200 Y205 E48.25862
G1 X150 Y205 E49.58902
G1 X149.369 Y204.96 E49.60585
G1 X148.748 Y204.841 E49.62267
G1 X148.148 Y204.644 E49.63948
G1 X147.576 Y204.373 E49.65632
G1 X147.044 Y204.033 E49.67312
G1 X146.559 Y203.627 E49.68995
G1 X146.129 Y203.164 E49.70676
G1 X145.76 Y202.65 E49.7236
G1 X145.46 Y202.094 E49.74041
G1 X145.232 Y201.505 E49.75721
G1 X145.08 Y200.891 E49.77404
G1 X145 Y200 E49.79784
G1 X145 Y150 E51.12825
M204 S500
G0 F6000 X145.4 Y150
M204 S100
G1 F900 X145.44 Y149.395 E51.14438
G1 X145.559 Y148.801 E51.1605
G1 X145.755 Y148.227 E51.17664
G1 X146.026 Y147.684 E51.19279
G1 X146.365 Y147.181 E51.20893
G1 X146.767 Y146.728 E51.22504
G1 X147.225 Y146.331 E51.24117
G1 X147.732 Y145.998 E51.25731
G1 X148.278 Y145.734 E51.27345
G1 X148.854 Y145.545 E51.28958
G1 X149.45 Y145.433 E51.30571
G1 X150 Y145.4 E51.32038
G1 X200 Y145.4 E52.65078
G1 X200.605 Y145.44 E52.66691
G1 X201.199 Y145.559 E52.68303
G1 X201.773 Y145.755 E52.69917
G1 X202.316 Y146.026 E52.71532
G1 X202.819 Y146.365 E52.73146
G1 X203.272 Y146.767 E52.74757
G1 X203.669 Y147.225 E52.7637
