;FLAVOR:Marlin
;TIME:2012
;Filament used: 1.58301m
;Layer height: 0.2
;MINX:154.335
;MINY:154.335
;MINZ:0.2
;MAXX:195.665
;MAXY:195.665
;MAXZ:17
;Generated with Cura_SteamEngine 5.0.0
M140 S60
M105
M190 S60
M104 S180
M105
M109 S180
M82 ;absolute extrusion mode
M201 X500.00 Y500.00 Z100.00 E5000.00 ;Setup machine max acceleration
M203 X500.00 Y500.00 Z10.00 E50.00 ;Setup machine max feedrate
M204 P500.00 R1000.00 T500.00 ;Setup Print/Retract/Travel acceleration
M205 X8.00 Y8.00 Z0.40 E5.00 ;Setup Jerk
M220 S100 ;Reset Feedrate
M221 S100 ;Reset Flowrate

G28 ;Home
M420 S1 Z2 ;Enable ABL using saved Mesh and Fade Height

G92 E0 ;Reset Extruder
G1 Z2.0 F3000 ;Move Z Axis up
G1 X10.1 Y20 Z0.28 F5000.0 ;Move to start position
G1 X10.1 Y200.0 Z0.28 F1500.0 E15 ;Draw the first line
G1 X10.4 Y200.0 Z0.28 F5000.0 ;Move to side a little
G1 X10.4 Y20 Z0.28 F1500.0 E30 ;Draw the second line
G92 E0 ;Reset Extruder
G1 Z2.0 F3000 ;Move Z Axis up

G92 E0
G92 E0
G1 F2700 E-5
;LAYER_COUNT:88
;LAYER:0
M107
;MESH:Retraction_Spikes.stl
G0 F6000 X155.2 Y194.8 Z0.2
;TYPE:WALL-OUTER
G1 F2700 E0
G1 F1200 X194.8 Y194.8 E1.3171
G1 X194.8 Y155.2 E2.6342
G1 X155.2 Y155.2 E3.9513
G1 X155.2 Y194.8 E5.26841
G0 F6000 X155.6 Y194.4
;TYPE:WALL-INNER
G1 F1200 X194.4 Y194.4 E6.5589
G1 X194.4 Y155.6 E7.84939
G1 X155.6 Y155.6 E9.13989
G1 X155.6 Y194.4 E10.43038
G0 F6000 X156 Y194
G1 F1200 X194 Y194 E11.69426
G1 X194 Y156 E12.95815
G1 X156 Y156 E14.22203
G1 X156 Y194 E15.48592
G0 F6000 X156.36 Y193.64
;TYPE:SKIN
G1 F1200 X193.64 Y193.64 E16.72586
G1 X193.64 Y156.36 E17.96579
G1 X156.36 Y156.36 E19.20573
G1 X156.36 Y193.64 E20.44567
G0 F6000 X156.559 Y193.329
G1 F1200 X156.67 Y193.439 E20.45087
G0 F6000 X157.235 Y193.439
G1 F1200 X156.559 Y192.763 E20.48266
G0 F6000 X156.559 Y192.197
G1 F1200 X157.801 Y193.439 E20.54108
G0 F6000 X158.367 Y193.439
G1 F1200 X156.559 Y191.632 E20.6261
G0 F6000 X156.559 Y191.066
G1 F1200 X158.932 Y193.439 E20.73772
G0 F6000 X159.498 Y193.439
G1 F1200 X156.559 Y190.5 E20.87596
G0 F6000 X156.559 Y189.935
G1 F1200 X160.064 Y193.439 E21.04081
G0 F6000 X160.629 Y193.439
G1 F1200 X156.559 Y189.369 E21.23225
G0 F6000 X156.559 Y188.803
G1 F1200 X161.195 Y193.439 E21.45031
G0 F6000 X161.761 Y193.439
G1 F1200 X156.559 Y188.238 E21.69497
G0 F6000 X156.559 Y187.672
G1 F1200 X162.326 Y193.439 E21.96623
G0 F6000 X162.892 Y193.439
G1 F1200 X156.559 Y187.106 E22.26412
G0 F6000 X156.559 Y186.541
G1 F1200 X163.458 Y193.439 E22.5886
G0 F6000 X164.024 Y193.439
G1 F1200 X156.559 Y185.975 E22.93971
G0 F6000 X156.559 Y185.409
G1 F1200 X164.589 Y193.439 E23.31742
G0 F6000 X165.155 Y193.439
G1 F1200 X156.559 Y184.844 E23.72172
G0 F6000 X156.559 Y184.278
G1 F1200 X165.721 Y193.439 E24.15265
G0 F6000 X166.286 Y193.439
G1 F1200 X156.559 Y183.712 E24.61018
G0 F6000 X156.559 Y183.147
G1 F1200 X166.852 Y193.439 E25.09431
G0 F6000 X167.418 Y193.439
G1 F1200 X156.559 Y182.581 E25.60506
G0 F6000 X156.559 Y182.015
G1 F1200 X167.983 Y193.439 E26.14241
G0 F6000 X168.549 Y193.439
G1 F1200 X156.559 Y181.449 E26.70638
G0 F6000 X156.559 Y180.884
G1 F1200 X169.115 Y193.439 E27.29695
G0 F6000 X169.68 Y193.439
G1 F1200 X156.559 Y180.318 E27.91412
G0 F6000 X156.559 Y179.752
G1 F1200 X170.246 Y193.439 E28.55792
G0 F6000 X170.812 Y193.439
G1 F1200 X156.559 Y179.187 E29.22831
G0 F6000 X156.559 Y178.621
G1 F1200 X171.377 Y193.439 E29.92531
G0 F6000 X171.943 Y193.439
G1 F1200 X156.559 Y178.055 E30.64892
G0 F6000 X156.559 Y177.49
G1 F1200 X172.509 Y193.439 E31.39914
G0 F6000 X173.074 Y193.439
G1 F1200 X156.559 Y176.924 E32.17595
G0 F6000 X156.559 Y176.358
G1 F1200 X173.64 Y193.439 E32.97939
G0 F6000 X174.206 Y193.439
G1 F1200 X156.559 Y175.793 E33.80943
G0 F6000 X156.559 Y175.227
G1 F1200 X174.772 Y193.439 E34.66609
G0 F6000 X175.337 Y193.439
G1 F1200 X156.559 Y174.661 E35.54935
G0 F6000 X156.559 Y174.096
G1 F1200 X175.903 Y193.439 E36.45921
G0 F6000 X176.469 Y193.439
G1 F1200 X156.559 Y173.53 E37.39569
G0 F6000 X156.559 Y172.964
G1 F1200 X177.034 Y193.439 E38.35877
G0 F6000 X177.6 Y193.439
G1 F1200 X156.559 Y172.398 E39.34847
G0 F6000 X156.559 Y171.833
G1 F1200 X178.166 Y193.439 E40.36478
G0 F6000 X178.731 Y193.439
G1 F1200 X156.559 Y171.267 E41.40768
G0 F6000 X156.559 Y170.701
G1 F1200 X179.297 Y193.439 E42.47721
G0 F6000 X179.863 Y193.439
G1 F1200 X156.559 Y170.136 E43.57333
G0 F6000 X156.559 Y169.57
G1 F1200 X180.428 Y193.439 E44.69606
G0 F6000 X180.994 Y193.439
G1 F1200 X156.559 Y169.004 E45.8454
G0 F6000 X156.559 Y168.439
G1 F1200 X181.56 Y193.439 E47.02135
G0 F6000 X182.125 Y193.439
G1 F1200 X156.559 Y167.873 E48.2239
G0 F6000 X156.559 Y167.307
G1 F1200 X182.691 Y193.439 E49.45307
G0 F6000 X183.257 Y193.439
G1 F1200 X156.559 Y166.742 E50.70883
G0 F6000 X156.559 Y166.176
G1 F1200 X183.823 Y193.439 E51.99123
G0 F6000 X184.388 Y193.439
G1 F1200 X156.559 Y165.61 E53.30022
G0 F6000 X156.559 Y165.045
G1 F1200 X184.954 Y193.439 E54.63581
G0 F6000 X185.52 Y193.439
G1 F1200 X156.559 Y164.479 E55.99802
G0 F6000 X156.559 Y163.913
G1 F1200 X186.085 Y193.439 E57.38683
G0 F6000 X186.651 Y193.439
G1 F1200 X156.559 Y163.348 E58.80224
G0 F6000 X156.559 Y162.782
G1 F1200 X187.217 Y193.439 E60.24428
G0 F6000 X187.782 Y193.439
G1 F1200 X156.559 Y162.216 E61.71291
G0 F6000 X156.559 Y161.65
G1 F1200 X188.348 Y193.439 E63.20817
G0 F6000 X188.914 Y193.439
G1 F1200 X156.559 Y161.085 E64.73003
G0 F6000 X156.559 Y160.519
G1 F1200 X189.479 Y193.439 E66.27848
G0 F6000 X190.045 Y193.439
G1 F1200 X156.559 Y159.953 E67.85356
G0 F6000 X156.559 Y159.388
G1 F1200 X190.611 Y193.439 E69.45524
G0 F6000 X191.176 Y193.439
G1 F1200 X156.559 Y158.822 E71.08352
G0 F6000 X156.559 Y158.256
G1 F1200 X191.742 Y193.439 E72.73842
G0 F6000 X192.308 Y193.439
G1 F1200 X156.559 Y157.691 E74.41992
G0 F6000 X156.559 Y157.125
G1 F1200 X192.873 Y193.439 E76.12802
G0 F6000 X193.439 Y193.439
G1 F1200 X156.559 Y156.559 E77.86274
G0 F6000 X157.125 Y156.559
G1 F1200 X193.439 Y192.873 E79.57084
G0 F6000 X193.439 Y192.308
G1 F1200 X157.691 Y156.559 E81.25234
G0 F6000 X158.256 Y156.559
G1 F1200 X193.439 Y191.742 E82.90724
G0 F6000 X193.439 Y191.176
G1 F1200 X158.822 Y156.559 E84.53552
G0 F6000 X159.388 Y156.559
G1 F1200 X193.439 Y190.611 E86.13719
G0 F6000 X193.439 Y190.045
G1 F1200 X159.953 Y156.559 E87.71227
G0 F6000 X160.519 Y156.559
G1 F1200 X193.439 Y189.479 E89.26073
G0 F6000 X193.439 Y188.914
G1 F1200 X161.085 Y156.559 E90.78258
G0 F6000 X161.65 Y156.559
G1 F1200 X193.439 Y188.348 E92.27784
G0 F6000 X193.439 Y187.782
G1 F1200 X162.216 Y156.559 E93.74648
G0 F6000 X162.782 Y156.559
G1 F1200 X193.439 Y187.217 E95.18851
G0 F6000 X193.439 Y186.651
G1 F1200 X163.348 Y156.559 E96.60392
G0 F6000 X163.913 Y156.559
G1 F1200 X193.439 Y186.085 E97.99274
G0 F6000 X193.439 Y185.52
G1 F1200 X164.479 Y156.559 E99.35495
G0 F6000 X165.045 Y156.559
G1 F1200 X193.439 Y184.954 E100.69054
G0 F6000 X193.439 Y184.388
G1 F1200 X165.61 Y156.559 E101.99953
G0 F6000 X166.176 Y156.559
G1 F1200 X193.439 Y183.823 E103.28192
G0 F6000 X193.439 Y183.257
G1 F1200 X166.742 Y156.559 E104.53769
G0 F6000 X167.307 Y156.559
G1 F1200 X193.439 Y182.691 E105.76686
G0 F6000 X193.439 Y182.125
G1 F1200 X167.873 Y156.559 E106.9694
G0 F6000 X168.439 Y156.559
G1 F1200 X193.439 Y181.56 E108.14535
G0 F6000 X193.439 Y180.994
G1 F1200 X169.004 Y156.559 E109.2947
G0 F6000 X169.57 Y156.559
G1 F1200 X193.439 Y180.428 E110.41742
G0 F6000 X193.439 Y179.863
G1 F1200 X170.136 Y156.559 E111.51355
G0 F6000 X170.701 Y156.559
G1 F1200 X193.439 Y179.297 E112.58307
G0 F6000 X193.439 Y178.731
G1 F1200 X171.267 Y156.559 E113.62598
G0 F6000 X171.833 Y156.559
G1 F1200 X193.439 Y178.166 E114.64228
G0 F6000 X193.439 Y177.6
G1 F1200 X172.398 Y156.559 E115.63199
G0 F6000 X172.964 Y156.559
G1 F1200 X193.439 Y177.034 E116.59507
G0 F6000 X193.439 Y176.469
G1 F1200 X173.53 Y156.559 E117.53155
G0 F6000 X174.096 Y156.559
G1 F1200 X193.439 Y175.903 E118.44141
G0 F6000 X193.439 Y175.337
G1 F1200 X174.661 Y156.559 E119.32467
G0 F6000 X175.227 Y156.559
G1 F1200 X193.439 Y174.772 E120.18133
G0 F6000 X193.439 Y174.206
G1 F1200 X175.793 Y156.559 E121.01136
G0 F6000 X176.358 Y156.559
G1 F1200 X193.439 Y173.64 E121.8148
G0 F6000 X193.439 Y173.074
G1 F1200 X176.924 Y156.559 E122.59162
G0 F6000 X177.49 Y156.559
G1 F1200 X193.439 Y172.509 E123.34183
G0 F6000 X193.439 Y171.943
G1 F1200 X178.055 Y156.559 E124.06545
G0 F6000 X178.621 Y156.559
G1 F1200 X193.439 Y171.377 E124.76244
G0 F6000 X193.439 Y170.812
G1 F1200 X179.187 Y156.559 E125.43284
G0 F6000 X179.752 Y156.559
G1 F1200 X193.439 Y170.246 E126.07663
G0 F6000 X193.439 Y169.68
G1 F1200 X180.318 Y156.559 E126.6938
G0 F6000 X180.884 Y156.559
G1 F1200 X193.439 Y169.115 E127.28437
G0 F6000 X193.439 Y168.549
G1 F1200 X181.449 Y156.559 E127.84835
G0 F6000 X182.015 Y156.559
G1 F1200 X193.439 Y167.983 E128.3857
G0 F6000 X193.439 Y167.418
G1 F1200 X182.581 Y156.559 E128.89645
G0 F6000 X183.147 Y156.559
G1 F1200 X193.439 Y166.852 E129.38058
G0 F6000 X193.439 Y166.286
G1 F1200 X183.712 Y156.559 E129.8381
G0 F6000 X184.278 Y156.559
G1 F1200 X193.439 Y165.721 E130.26903
G0 F6000 X193.439 Y165.155
G1 F1200 X184.844 Y156.559 E130.67334
G0 F6000 X185.409 Y156.559
G1 F1200 X193.439 Y164.589 E131.05105
G0 F6000 X193.439 Y164.024
G1 F1200 X185.975 Y156.559 E131.40215
G0 F6000 X186.541 Y156.559
G1 F1200 X193.439 Y163.458 E131.72664
G0 F6000 X193.439 Y162.892
G1 F1200 X187.106 Y156.559 E132.02452
G0 F6000 X187.672 Y156.559
G1 F1200 X193.439 Y162.326 E132.29578
G0 F6000 X193.439 Y161.761
G1 F1200 X188.238 Y156.559 E132.54045
G0 F6000 X188.803 Y156.559
G1 F1200 X193.439 Y161.195 E132.75851
G0 F6000 X193.439 Y160.629
G1 F1200 X189.369 Y156.559 E132.94995
G0 F6000 X189.935 Y156.559
G1 F1200 X193.439 Y160.064 E133.11479
G0 F6000 X193.439 Y159.498
G1 F1200 X190.5 Y156.559 E133.25303
G0 F6000 X191.066 Y156.559
G1 F1200 X193.439 Y158.932 E133.36465
G0 F6000 X193.439 Y158.367
G1 F1200 X191.632 Y156.559 E133.44967
G0 F6000 X192.197 Y156.559
G1 F1200 X193.439 Y157.801 E133.50809
G0 F6000 X193.439 Y157.235
G1 F1200 X192.763 Y156.559 E133.53989
G0 F6000 X193.329 Y156.559
G1 F1200 X193.439 Y156.67 E133.54508
G0 F6000 X193.99 Y156.67
G1 F2700 E128.54508
;MESH:NONMESH
G0 F300 X193.99 Y156.67 Z0.4
G0 F6000 X193.828 Y193.828
G0 X155.68 Y194.32
G1 F2700 E133.54508
G0 F6000 X155.2 Y194.8
;TIME_ELAPSED:216.982683
;LAYER:1
M106 S59.5
;TYPE:WALL-OUTER
;MESH:Retraction_Spikes.stl
G1 F1800 X194.8 Y194.8 E134.86219
G1 X194.8 Y155.2 E136.17929
G1 X155.2 Y155.2 E137.49639
G1 X155.2 Y194.8 E138.81349
G0 F6000 X155.6 Y194.4
;TYPE:WALL-INNER
G1 F1800 X194.4 Y194.4 E140.10398
G1 X194.4 Y155.6 E141.39448
G1 X155.6 Y155.6 E142.68497
G1 X155.6 Y194.4 E143.97546
G0 F6000 X156 Y194
G1 F1800 X194 Y194 E145.23935
G1 X194 Y156 E146.50323
G1 X156 Y156 E147.76712
G1 X156 Y194 E149.031
G0 F6000 X156.36 Y193.64
;TYPE:SKIN
G1 F1800 X193.64 Y193.64 E150.27094
G1 X193.64 Y156.36 E151.51088
G1 X156.36 Y156.36 E152.75082
G1 X156.36 Y193.64 E153.99075
G1 F2700 E148.99075
G0 F6000 X156.1 Y193.64
G0 X156.1 Y156.829
G1 F2700 E153.99075
G0 F6000 X156.559 Y156.829
G1 F1800 X156.829 Y156.559 E154.00345
G0 F6000 X157.395 Y156.559
G1 F1800 X156.559 Y157.395 E154.04278
G0 F6000 X156.559 Y157.961
G1 F1800 X157.961 Y156.559 E154.10872
G0 F6000 X158.526 Y156.559
G1 F1800 X156.559 Y158.526 E154.20125
G0 F6000 X156.559 Y159.092
G1 F1800 X159.092 Y156.559 E154.32039
G0 F6000 X159.658 Y156.559
G1 F1800 X156.559 Y159.658 E154.46616
G0 F6000 X156.559 Y160.224
G1 F1800 X160.224 Y156.559 E154.63855
G0 F6000 X160.789 Y156.559
G1 F1800 X156.559 Y160.789 E154.83751
G0 F6000 X156.559 Y161.355
G1 F1800 X161.355 Y156.559 E155.0631
G0 F6000 X161.921 Y156.559
G1 F1800 X156.559 Y161.921 E155.31531
G0 F6000 X156.559 Y162.486
G1 F1800 X162.486 Y156.559 E155.5941
G0 F6000 X163.052 Y156.559
G1 F1800 X156.559 Y163.052 E155.89951
G0 F6000 X156.559 Y163.618
G1 F1800 X163.618 Y156.559 E156.23155
G0 F6000 X164.183 Y156.559
G1 F1800 X156.559 Y164.183 E156.59016
G0 F6000 X156.559 Y164.749
G1 F1800 X164.749 Y156.559 E156.97539
G0 F6000 X165.315 Y156.559
G1 F1800 X156.559 Y165.315 E157.38724
G0 F6000 X156.559 Y165.88
G1 F1800 X165.88 Y156.559 E157.82568
G0 F6000 X166.446 Y156.559
G1 F1800 X156.559 Y166.446 E158.29073
G0 F6000 X156.559 Y167.012
G1 F1800 X167.012 Y156.559 E158.78241
G0 F6000 X167.577 Y156.559
G1 F1800 X156.559 Y167.577 E159.30066
G0 F6000 X156.559 Y168.143
G1 F1800 X168.143 Y156.559 E159.84554
G0 F6000 X168.709 Y156.559
G1 F1800 X156.559 Y168.709 E160.41703
G0 F6000 X156.559 Y169.274
G1 F1800 X169.274 Y156.559 E161.01511
G0 F6000 X169.84 Y156.559
G1 F1800 X156.559 Y169.84 E161.63981
G0 F6000 X156.559 Y170.406
G1 F1800 X170.406 Y156.559 E162.29113
G0 F6000 X170.972 Y156.559
G1 F1800 X156.559 Y170.972 E162.96907
G0 F6000 X156.559 Y171.537
G1 F1800 X171.537 Y156.559 E163.67359
G0 F6000 X172.103 Y156.559
G1 F1800 X156.559 Y172.103 E164.40473
G0 F6000 X156.559 Y172.669
G1 F1800 X172.669 Y156.559 E165.1625
G0 F6000 X173.234 Y156.559
G1 F1800 X156.559 Y173.234 E165.94684
G0 F6000 X156.559 Y173.8
G1 F1800 X173.8 Y156.559 E166.7578
G0 F6000 X174.366 Y156.559
G1 F1800 X156.559 Y174.366 E167.59539
G0 F6000 X156.559 Y174.931
G1 F1800 X174.931 Y156.559 E168.45955
G0 F6000 X175.497 Y156.559
G1 F1800 X156.559 Y175.497 E169.35034
G0 F6000 X156.559 Y176.063
G1 F1800 X176.063 Y156.559 E170.26774
G0 F6000 X176.628 Y156.559
G1 F1800 X156.559 Y176.628 E171.21173
G0 F6000 X156.559 Y177.194
G1 F1800 X177.194 Y156.559 E172.18234
G0 F6000 X177.76 Y156.559
G1 F1800 X156.559 Y177.76 E173.17957
G0 F6000 X156.559 Y178.325
G1 F1800 X178.325 Y156.559 E174.20337
G0 F6000 X178.891 Y156.559
G1 F1800 X156.559 Y178.891 E175.2538
G0 F6000 X156.559 Y179.457
G1 F1800 X179.457 Y156.559 E176.33085
G0 F6000 X180.023 Y156.559
G1 F1800 X156.559 Y180.023 E177.43453
G0 F6000 X156.559 Y180.588
G1 F1800 X180.588 Y156.559 E178.56478
G0 F6000 X181.154 Y156.559
G1 F1800 X156.559 Y181.154 E179.72165
G0 F6000 X156.559 Y181.72
G1 F1800 X181.72 Y156.559 E180.90515
G0 F6000 X182.285 Y156.559
G1 F1800 X156.559 Y182.285 E182.11522
G0 F6000 X156.559 Y182.851
G1 F1800 X182.851 Y156.559 E183.35191
G0 F6000 X183.417 Y156.559
G1 F1800 X156.559 Y183.417 E184.61523
G0 F6000 X156.559 Y183.982
G1 F1800 X183.982 Y156.559 E185.90513
G0 F6000 X184.548 Y156.559
G1 F1800 X156.559 Y184.548 E187.22164
G0 F6000 X156.559 Y185.114
G1 F1800 X185.114 Y156.559 E188.56478
G0 F6000 X185.679 Y156.559
G1 F1800 X156.559 Y185.679 E189.9345
G0 F6000 X156.559 Y186.245
G1 F1800 X186.245 Y156.559 E191.33084
G0 F6000 X186.811 Y156.559
G1 F1800 X156.559 Y186.811 E192.7538
G0 F6000 X156.559 Y187.376
G1 F1800 X187.376 Y156.559 E194.20334
G0 F6000 X187.942 Y156.559
G1 F1800 X156.559 Y187.942 E195.6795
G0 F6000 X156.559 Y188.508
G1 F1800 X188.508 Y156.559 E197.18228
G0 F6000 X189.073 Y156.559
G1 F1800 X156.559 Y189.073 E198.71164
G0 F6000 X156.559 Y189.639
G1 F1800 X189.639 Y156.559 E200.26762
G0 F6000 X190.205 Y156.559
G1 F1800 X156.559 Y190.205 E201.85022
G0 F6000 X156.559 Y190.771
G1 F1800 X190.771 Y156.559 E203.45945
G0 F6000 X191.336 Y156.559
G1 F1800 X156.559 Y191.336 E205.09525
G0 F6000 X156.559 Y191.902
G1 F1800 X191.902 Y156.559 E206.75768
G0 F6000 X192.468 Y156.559
G1 F1800 X156.559 Y192.468 E208.44673
G0 F6000 X156.559 Y193.033
G1 F1800 X193.033 Y156.559 E210.16236
G0 F6000 X193.439 Y156.719
G1 F1800 X156.719 Y193.439 E211.88955
G0 F6000 X157.285 Y193.439
G1 F1800 X193.439 Y157.285 E213.59013
G0 F6000 X193.439 Y157.85
G1 F1800 X157.85 Y193.439 E215.26412
G0 F6000 X158.416 Y193.439
G1 F1800 X193.439 Y158.416 E216.9115
G0 F6000 X193.439 Y158.982
G1 F1800 X158.982 Y193.439 E218.53225
G0 F6000 X159.548 Y193.439
G1 F1800 X193.439 Y159.548 E220.12638
G0 F6000 X193.439 Y160.113
G1 F1800 X160.113 Y193.439 E221.69393
G0 F6000 X160.679 Y193.439
G1 F1800 X193.439 Y160.679 E223.23486
G0 F6000 X193.439 Y161.245
G1 F1800 X161.245 Y193.439 E224.74917
G0 F6000 X161.81 Y193.439
G1 F1800 X193.439 Y161.81 E226.2369
G0 F6000 X193.439 Y162.376
G1 F1800 X162.376 Y193.439 E227.69801
G0 F6000 X162.942 Y193.439
G1 F1800 X193.439 Y162.942 E229.13249
G0 F6000 X193.439 Y163.507
G1 F1800 X163.507 Y193.439 E230.5404
G0 F6000 X164.073 Y193.439
